tests/test_open_vp_cal/resources/TestCalibrate/export/calibration/Post_Calibration_OpenVPCal_test_ocio.ocio
ocio_profile_version: 2.3

environment:
  {}
search_path: ./
strictparsing: true
luma: [0.2126, 0.7152, 0.0722]
name: studio-config-v2.1.0_aces-v1.3_ocio-v2.3
description: |
  Academy Color Encoding System - Studio Config [COLORSPACES v2.1.0] [ACES v1.3] [OCIO v2.3]
  ------------------------------------------------------------------------------------------

  This "OpenColorIO" config is geared toward studios requiring a config that includes a wide variety of camera colorspaces, displays and looks.

roles:
  aces_interchange: ACES2065-1
  cie_xyz_d65_interchange: CIE-XYZ-D65
  color_picking: sRGB - Texture
  color_timing: ACEScct
  compositing_log: ACEScct
  data: Raw
  matte_paint: ACEScct
  scene_linear: ACEScg
  texture_paint: sRGB - Texture

file_rules:
  - !<Rule> {name: Default, colorspace: ACES2065-1}

shared_views:
  - !<View> {name: ACES 1.0 - SDR Video, view_transform: ACES 1.0 - SDR Video, display_colorspace: <USE_DISPLAY_NAME>}
  - !<View> {name: ACES 1.0 - SDR Video (D60 sim on D65), view_transform: ACES 1.0 - SDR Video (D60 sim on D65), display_colorspace: <USE_DISPLAY_NAME>}
  - !<View> {name: ACES 1.1 - SDR Video (P3 lim), view_transform: ACES 1.1 - SDR Video (P3 lim), display_colorspace: <USE_DISPLAY_NAME>}
  - !<View> {name: ACES 1.1 - SDR Video (Rec.709 lim), view_transform: ACES 1.1 - SDR Video (Rec.709 lim), display_colorspace: <USE_DISPLAY_NAME>}
  - !<View> {name: "ACES 1.1 - HDR Video (1000 nits & Rec.2020 lim)", view_transform: "ACES 1.1 - HDR Video (1000 nits & Rec.2020 lim)", display_colorspace: <USE_DISPLAY_NAME>}
  - !<View> {name: "ACES 1.1 - HDR Video (2000 nits & Rec.2020 lim)", view_transform: "ACES 1.1 - HDR Video (2000 nits & Rec.2020 lim)", display_colorspace: <USE_DISPLAY_NAME>}
  - !<View> {name: "ACES 1.1 - HDR Video (4000 nits & Rec.2020 lim)", view_transform: "ACES 1.1 - HDR Video (4000 nits & Rec.2020 lim)", display_colorspace: <USE_DISPLAY_NAME>}
  - !<View> {name: "ACES 1.1 - HDR Video (1000 nits & P3 lim)", view_transform: "ACES 1.1 - HDR Video (1000 nits & P3 lim)", display_colorspace: <USE_DISPLAY_NAME>}
  - !<View> {name: "ACES 1.1 - HDR Video (2000 nits & P3 lim)", view_transform: "ACES 1.1 - HDR Video (2000 nits & P3 lim)", display_colorspace: <USE_DISPLAY_NAME>}
  - !<View> {name: "ACES 1.1 - HDR Video (4000 nits & P3 lim)", view_transform: "ACES 1.1 - HDR Video (4000 nits & P3 lim)", display_colorspace: <USE_DISPLAY_NAME>}
  - !<View> {name: ACES 1.0 - SDR Cinema, view_transform: ACES 1.0 - SDR Cinema, display_colorspace: <USE_DISPLAY_NAME>}
  - !<View> {name: ACES 1.1 - SDR Cinema (Rec.709 lim), view_transform: ACES 1.1 - SDR Cinema (Rec.709 lim), display_colorspace: <USE_DISPLAY_NAME>}
  - !<View> {name: ACES 1.0 - SDR Cinema (D60 sim on DCI), view_transform: ACES 1.0 - SDR Cinema (D60 sim on DCI), display_colorspace: <USE_DISPLAY_NAME>}
  - !<View> {name: ACES 1.1 - SDR Cinema (D60 sim on D65), view_transform: ACES 1.1 - SDR Cinema (D60 sim on D65), display_colorspace: <USE_DISPLAY_NAME>}
  - !<View> {name: ACES 1.1 - SDR Cinema (D65 sim on DCI), view_transform: ACES 1.1 - SDR Cinema (D65 sim on DCI), display_colorspace: <USE_DISPLAY_NAME>}
  - !<View> {name: "ACES 1.1 - HDR Cinema (108 nits & P3 lim)", view_transform: "ACES 1.1 - HDR Cinema (108 nits & P3 lim)", display_colorspace: <USE_DISPLAY_NAME>}
  - !<View> {name: Un-tone-mapped, view_transform: Un-tone-mapped, display_colorspace: <USE_DISPLAY_NAME>}
  - !<View> {name: Calibrated AOTO_Wall2 - AOTO_Acheivable - REDWideGamutRGB - EOTF_CS - Soft_Rolloff_s770-10000_to_1100_nits, view_transform: Calibrated AOTO_Wall2 - AOTO_Acheivable - REDWideGamutRGB - EOTF_CS - Soft_Rolloff_s770-10000_to_1100_nits, display_colorspace: <USE_DISPLAY_NAME>}
  - !<View> {name: Calibrated AOTO_Wall2 - AOTO_Acheivable - REDWideGamutRGB - EOTF_CS - Medium_Rolloff_s880-10000_to_1100_nits, view_transform: Calibrated AOTO_Wall2 - AOTO_Acheivable - REDWideGamutRGB - EOTF_CS - Medium_Rolloff_s880-10000_to_1100_nits, display_colorspace: <USE_DISPLAY_NAME>}
  - !<View> {name: Calibrated AOTO_Wall2 - AOTO_Acheivable - REDWideGamutRGB - EOTF_CS - Hard_Rolloff_s990-10000_to_1100_nits, view_transform: Calibrated AOTO_Wall2 - AOTO_Acheivable - REDWideGamutRGB - EOTF_CS - Hard_Rolloff_s990-10000_to_1100_nits, display_colorspace: <USE_DISPLAY_NAME>}
  - !<View> {name: Calibrated Output - AOTO_Wall2 - AOTO_Acheivable - REDWideGamutRGB - EOTF_CS, view_transform: Calibrated AOTO_Wall2 - AOTO_Acheivable - REDWideGamutRGB - EOTF_CS, display_colorspace: <USE_DISPLAY_NAME>}
  - !<View> {name: Pre-Calibration Output, view_transform: Pre-Calibration - Default Target, display_colorspace: <USE_DISPLAY_NAME>}

displays:
  sRGB - Display:
    - !<View> {name: Raw, colorspace: Raw}
    - !<Views> [ACES 1.0 - SDR Video, ACES 1.0 - SDR Video (D60 sim on D65), Un-tone-mapped]
  Display P3 - Display:
    - !<View> {name: Raw, colorspace: Raw}
    - !<Views> [ACES 1.0 - SDR Video, ACES 1.0 - SDR Video (D60 sim on D65), Un-tone-mapped]
  Rec.1886 Rec.709 - Display:
    - !<View> {name: Raw, colorspace: Raw}
    - !<Views> [ACES 1.0 - SDR Video, ACES 1.0 - SDR Video (D60 sim on D65), Un-tone-mapped]
  Rec.1886 Rec.2020 - Display:
    - !<View> {name: Raw, colorspace: Raw}
    - !<Views> [ACES 1.0 - SDR Video, ACES 1.1 - SDR Video (P3 lim), ACES 1.1 - SDR Video (Rec.709 lim), Un-tone-mapped]
  Rec.2100-HLG - Display:
    - !<View> {name: Raw, colorspace: Raw}
    - !<Views> ["ACES 1.1 - HDR Video (1000 nits & Rec.2020 lim)", Un-tone-mapped]
  Rec.2100-PQ - Display:
    - !<View> {name: Raw, colorspace: Raw}
    - !<Views> ["ACES 1.1 - HDR Video (1000 nits & Rec.2020 lim)", "ACES 1.1 - HDR Video (2000 nits & Rec.2020 lim)", "ACES 1.1 - HDR Video (4000 nits & Rec.2020 lim)", Un-tone-mapped]
  ST2084-P3-D65 - Display:
    - !<View> {name: Raw, colorspace: Raw}
    - !<Views> ["ACES 1.1 - HDR Video (1000 nits & P3 lim)", "ACES 1.1 - HDR Video (2000 nits & P3 lim)", "ACES 1.1 - HDR Video (4000 nits & P3 lim)", "ACES 1.1 - HDR Cinema (108 nits & P3 lim)", Un-tone-mapped]
  P3-D60 - Display:
    - !<View> {name: Raw, colorspace: Raw}
    - !<Views> [ACES 1.0 - SDR Cinema, Un-tone-mapped]
  P3-D65 - Display:
    - !<View> {name: Raw, colorspace: Raw}
    - !<Views> [ACES 1.0 - SDR Cinema, ACES 1.1 - SDR Cinema (Rec.709 lim), ACES 1.1 - SDR Cinema (D60 sim on D65), Un-tone-mapped]
  P3-DCI - Display:
    - !<View> {name: Raw, colorspace: Raw}
    - !<Views> [ACES 1.0 - SDR Cinema (D60 sim on DCI), ACES 1.1 - SDR Cinema (D65 sim on DCI), Un-tone-mapped]
  AOTO_Acheivable - ST 2084 - OpenVPCal LED:
    - !<View> {name: Raw, colorspace: Raw}
    - !<Views> [Calibrated Output - AOTO_Wall2 - AOTO_Acheivable - REDWideGamutRGB - EOTF_CS, Calibrated AOTO_Wall2 - AOTO_Acheivable - REDWideGamutRGB - EOTF_CS - Soft_Rolloff_s770-10000_to_1100_nits, Calibrated AOTO_Wall2 - AOTO_Acheivable - REDWideGamutRGB - EOTF_CS - Medium_Rolloff_s880-10000_to_1100_nits, Calibrated AOTO_Wall2 - AOTO_Acheivable - REDWideGamutRGB - EOTF_CS - Hard_Rolloff_s990-10000_to_1100_nits, Pre-Calibration Output]

active_displays: [AOTO_Acheivable - ST 2084 - OpenVPCal LED, sRGB - Display, Display P3 - Display, Rec.1886 Rec.709 - Display, Rec.1886 Rec.2020 - Display, Rec.2100-HLG - Display, Rec.2100-PQ - Display, ST2084-P3-D65 - Display, P3-D60 - Display, P3-D65 - Display, P3-DCI - Display]
active_views: [Calibrated Output - AOTO_Wall2 - AOTO_Acheivable - REDWideGamutRGB - EOTF_CS, Pre-Calibration Output, Calibrated AOTO_Wall2 - AOTO_Acheivable - REDWideGamutRGB - EOTF_CS - Soft_Rolloff_s770-10000_to_1100_nits, Calibrated AOTO_Wall2 - AOTO_Acheivable - REDWideGamutRGB - EOTF_CS - Medium_Rolloff_s880-10000_to_1100_nits, Calibrated AOTO_Wall2 - AOTO_Acheivable - REDWideGamutRGB - EOTF_CS - Hard_Rolloff_s990-10000_to_1100_nits, ACES 1.0 - SDR Video, ACES 1.0 - SDR Video (D60 sim on D65), ACES 1.1 - SDR Video (P3 lim), ACES 1.1 - SDR Video (Rec.709 lim), "ACES 1.1 - HDR Video (1000 nits & Rec.2020 lim)", "ACES 1.1 - HDR Video (2000 nits & Rec.2020 lim)", "ACES 1.1 - HDR Video (4000 nits & Rec.2020 lim)", "ACES 1.1 - HDR Video (1000 nits & P3 lim)", "ACES 1.1 - HDR Video (2000 nits & P3 lim)", "ACES 1.1 - HDR Video (4000 nits & P3 lim)", ACES 1.0 - SDR Cinema, ACES 1.1 - SDR Cinema (Rec.709 lim), ACES 1.0 - SDR Cinema (D60 sim on DCI), ACES 1.1 - SDR Cinema (D60 sim on D65), ACES 1.1 - SDR Cinema (D65 sim on DCI), "ACES 1.1 - HDR Cinema (108 nits & P3 lim)", Un-tone-mapped, Raw]
inactive_colorspaces: [CIE-XYZ-D65, sRGB - Display, Display P3 - Display, Rec.1886 Rec.709 - Display, Rec.1886 Rec.2020 - Display, Rec.2100-HLG - Display, Rec.2100-PQ - Display, ST2084-P3-D65 - Display, P3-D60 - Display, P3-D65 - Display, P3-DCI - Display]

looks:
  - !<Look>
    name: ACES 1.3 Reference Gamut Compression
    process_space: ACES2065-1
    description: |
      LMT (applied in ACES2065-1) to compress scene-referred values from common cameras into the AP1 gamut

      ACEStransformID: urn:ampas:aces:transformId:v1.5:LMT.Academy.ReferenceGamutCompress.a1.v1.0

      AMF Components
      --------------
      ACEStransformID: urn:ampas:aces:transformId:v1.5:InvLMT.Academy.ReferenceGamutCompress.a1.v1.0
    transform: !<BuiltinTransform> {style: ACES-LMT - ACES 1.3 Reference Gamut Compression}

  - !<Look>
    name: Soft_Rolloff_s770-10000_to_1100_nits
    process_space: ACES2065-1
    transform: !<GroupTransform>
      children:
        - !<BuiltinTransform> {style: CURVE - ST-2084_to_LINEAR, direction: inverse}
        - !<GradingRGBCurveTransform>
          style: log
          master: {control_points: [0, 0, 0.6510315, 0.6510315, 0.7233683, 0.7233683, 0.7541052, 0.7349331, 0.784842, 0.7439399, 0.8155789, 0.7507082, 0.8463157, 0.755558, 0.8770526, 0.7588089, 0.9077894, 0.7607808, 0.9385263, 0.7617934, 0.9692631, 0.7621665, 1, 0.7622198]}
        - !<BuiltinTransform> {style: CURVE - ST-2084_to_LINEAR}

  - !<Look>
    name: Medium_Rolloff_s880-10000_to_1100_nits
    process_space: ACES2065-1
    transform: !<GroupTransform>
      children:
        - !<BuiltinTransform> {style: CURVE - ST-2084_to_LINEAR, direction: inverse}
        - !<GradingRGBCurveTransform>
          style: log
          master: {control_points: [0, 0, 0.664109, 0.664109, 0.7378989, 0.7378989, 0.7670212, 0.7451384, 0.7961436, 0.7507766, 0.8252659, 0.7550136, 0.8543883, 0.7580495, 0.8835106, 0.7600846, 0.9126329, 0.761319, 0.9417553, 0.7619529, 0.9708776, 0.7621864, 1, 0.7622198]}
        - !<BuiltinTransform> {style: CURVE - ST-2084_to_LINEAR}

  - !<Look>
    name: Hard_Rolloff_s990-10000_to_1100_nits
    process_space: ACES2065-1
    transform: !<GroupTransform>
      children:
        - !<BuiltinTransform> {style: CURVE - ST-2084_to_LINEAR, direction: inverse}
        - !<GradingRGBCurveTransform>
          style: log
          master: {control_points: [0, 0, 0.6756584, 0.6756584, 0.7507315, 0.7507315, 0.778428, 0.7541512, 0.8061246, 0.7568145, 0.8338211, 0.7588158, 0.8615175, 0.7602499, 0.889214, 0.7612112, 0.9169105, 0.7617943, 0.944607, 0.7620937, 0.9723035, 0.762204, 1, 0.7622198]}
        - !<BuiltinTransform> {style: CURVE - ST-2084_to_LINEAR}


default_view_transform: Un-tone-mapped

view_transforms:
  - !<ViewTransform>
    name: ACES 1.0 - SDR Video
    description: |
      Component of ACES Output Transforms for SDR D65 video

      ACEStransformID: urn:ampas:aces:transformId:v1.5:ODT.Academy.RGBmonitor_100nits_dim.a1.0.3
      ACEStransformID: urn:ampas:aces:transformId:v1.5:ODT.Academy.DisplayP3_dim.a1.0.0
      ACEStransformID: urn:ampas:aces:transformId:v1.5:ODT.Academy.Rec709_100nits_dim.a1.0.3
      ACEStransformID: urn:ampas:aces:transformId:v1.5:ODT.Academy.Rec2020_100nits_dim.a1.0.3

      AMF Components
      --------------
      ACEStransformID: urn:ampas:aces:transformId:v1.5:InvODT.Academy.RGBmonitor_100nits_dim.a1.0.3
      ACEStransformID: urn:ampas:aces:transformId:v1.5:InvODT.Academy.DisplayP3_dim.a1.0.0
      ACEStransformID: urn:ampas:aces:transformId:v1.5:InvODT.Academy.Rec709_100nits_dim.a1.0.3
      ACEStransformID: urn:ampas:aces:transformId:v1.5:InvODT.Academy.Rec2020_100nits_dim.a1.0.3
    from_scene_reference: !<BuiltinTransform> {style: ACES-OUTPUT - ACES2065-1_to_CIE-XYZ-D65 - SDR-VIDEO_1.0}

  - !<ViewTransform>
    name: ACES 1.0 - SDR Video (D60 sim on D65)
    description: |
      Component of ACES Output Transforms for SDR D65 video simulating D60 white

      ACEStransformID: urn:ampas:aces:transformId:v1.5:ODT.Academy.RGBmonitor_D60sim_100nits_dim.a1.0.3
      ACEStransformID: urn:ampas:aces:transformId:v1.5:ODT.Academy.DisplayP3_D60sim_dim.a1.0.0
      ACEStransformID: urn:ampas:aces:transformId:v1.5:ODT.Academy.Rec709_D60sim_100nits_dim.a1.0.3

      AMF Components
      --------------
      ACEStransformID: urn:ampas:aces:transformId:v1.5:InvODT.Academy.RGBmonitor_D60sim_100nits_dim.a1.0.3
      ACEStransformID: urn:ampas:aces:transformId:v1.5:InvODT.Academy.DisplayP3_D60sim_dim.a1.0.0
      ACEStransformID: urn:ampas:aces:transformId:v1.5:InvODT.Academy.Rec709_D60sim_100nits_dim.a1.0.3
    from_scene_reference: !<BuiltinTransform> {style: ACES-OUTPUT - ACES2065-1_to_CIE-XYZ-D65 - SDR-VIDEO-D60sim-D65_1.0}

  - !<ViewTransform>
    name: ACES 1.1 - SDR Video (P3 lim)
    description: |
      Component of ACES Output Transforms for SDR D65 video

      ACEStransformID: urn:ampas:aces:transformId:v1.5:ODT.Academy.Rec2020_P3D65limited_100nits_dim.a1.1.0
    from_scene_reference: !<BuiltinTransform> {style: ACES-OUTPUT - ACES2065-1_to_CIE-XYZ-D65 - SDR-VIDEO-P3lim_1.1}

  - !<ViewTransform>
    name: ACES 1.1 - SDR Video (Rec.709 lim)
    description: |
      Component of ACES Output Transforms for SDR D65 video

      ACEStransformID: urn:ampas:aces:transformId:v1.5:ODT.Academy.Rec2020_Rec709limited_100nits_dim.a1.1.0
    from_scene_reference: !<BuiltinTransform> {style: ACES-OUTPUT - ACES2065-1_to_CIE-XYZ-D65 - SDR-VIDEO-REC709lim_1.1}

  - !<ViewTransform>
    name: "ACES 1.1 - HDR Video (1000 nits & Rec.2020 lim)"
    description: |
      Component of ACES Output Transforms for 1000 nit HDR D65 video

      ACEStransformID: urn:ampas:aces:transformId:v1.5:RRTODT.Academy.Rec2020_1000nits_15nits_HLG.a1.1.0
      ACEStransformID: urn:ampas:aces:transformId:v1.5:RRTODT.Academy.Rec2020_1000nits_15nits_ST2084.a1.1.0

      AMF Components
      --------------
      ACEStransformID: urn:ampas:aces:transformId:v1.5:InvRRTODT.Academy.Rec2020_1000nits_15nits_HLG.a1.1.0
      ACEStransformID: urn:ampas:aces:transformId:v1.5:InvRRTODT.Academy.Rec2020_1000nits_15nits_ST2084.a1.1.0
    from_scene_reference: !<BuiltinTransform> {style: ACES-OUTPUT - ACES2065-1_to_CIE-XYZ-D65 - HDR-VIDEO-1000nit-15nit-REC2020lim_1.1}

  - !<ViewTransform>
    name: "ACES 1.1 - HDR Video (2000 nits & Rec.2020 lim)"
    description: |
      Component of ACES Output Transforms for 2000 nit HDR D65 video

      ACEStransformID: urn:ampas:aces:transformId:v1.5:RRTODT.Academy.Rec2020_2000nits_15nits_ST2084.a1.1.0

      AMF Components
      --------------
      ACEStransformID: urn:ampas:aces:transformId:v1.5:InvRRTODT.Academy.Rec2020_2000nits_15nits_ST2084.a1.1.0
    from_scene_reference: !<BuiltinTransform> {style: ACES-OUTPUT - ACES2065-1_to_CIE-XYZ-D65 - HDR-VIDEO-2000nit-15nit-REC2020lim_1.1}

  - !<ViewTransform>
    name: "ACES 1.1 - HDR Video (4000 nits & Rec.2020 lim)"
    description: |
      Component of ACES Output Transforms for 4000 nit HDR D65 video

      ACEStransformID: urn:ampas:aces:transformId:v1.5:RRTODT.Academy.Rec2020_4000nits_15nits_ST2084.a1.1.0

      AMF Components
      --------------
      ACEStransformID: urn:ampas:aces:transformId:v1.5:InvRRTODT.Academy.Rec2020_4000nits_15nits_ST2084.a1.1.0
    from_scene_reference: !<BuiltinTransform> {style: ACES-OUTPUT - ACES2065-1_to_CIE-XYZ-D65 - HDR-VIDEO-4000nit-15nit-REC2020lim_1.1}

  - !<ViewTransform>
    name: "ACES 1.1 - HDR Video (1000 nits & P3 lim)"
    description: |
      Component of ACES Output Transforms for 1000 nit HDR D65 video

      ACEStransformID: urn:ampas:aces:transformId:v1.5:RRTODT.Academy.P3D65_1000nits_15nits_ST2084.a1.1.0

      AMF Components
      --------------
      ACEStransformID: urn:ampas:aces:transformId:v1.5:InvRRTODT.Academy.P3D65_1000nits_15nits_ST2084.a1.1.0
    from_scene_reference: !<BuiltinTransform> {style: ACES-OUTPUT - ACES2065-1_to_CIE-XYZ-D65 - HDR-VIDEO-1000nit-15nit-P3lim_1.1}

  - !<ViewTransform>
    name: "ACES 1.1 - HDR Video (2000 nits & P3 lim)"
    description: |
      Component of ACES Output Transforms for 2000 nit HDR D65 video

      ACEStransformID: urn:ampas:aces:transformId:v1.5:RRTODT.Academy.P3D65_2000nits_15nits_ST2084.a1.1.0

      AMF Components
      --------------
      ACEStransformID: urn:ampas:aces:transformId:v1.5:InvRRTODT.Academy.P3D65_2000nits_15nits_ST2084.a1.1.0
    from_scene_reference: !<BuiltinTransform> {style: ACES-OUTPUT - ACES2065-1_to_CIE-XYZ-D65 - HDR-VIDEO-2000nit-15nit-P3lim_1.1}

  - !<ViewTransform>
    name: "ACES 1.1 - HDR Video (4000 nits & P3 lim)"
    description: |
      Component of ACES Output Transforms for 4000 nit HDR D65 video

      ACEStransformID: urn:ampas:aces:transformId:v1.5:RRTODT.Academy.P3D65_4000nits_15nits_ST2084.a1.1.0

      AMF Components
      --------------
      ACEStransformID: urn:ampas:aces:transformId:v1.5:InvRRTODT.Academy.P3D65_4000nits_15nits_ST2084.a1.1.0
    from_scene_reference: !<BuiltinTransform> {style: ACES-OUTPUT - ACES2065-1_to_CIE-XYZ-D65 - HDR-VIDEO-4000nit-15nit-P3lim_1.1}

  - !<ViewTransform>
    name: ACES 1.0 - SDR Cinema
    description: |
      Component of ACES Output Transforms for SDR cinema

      ACEStransformID: urn:ampas:aces:transformId:v1.5:ODT.Academy.P3D60_48nits.a1.0.3
      ACEStransformID: urn:ampas:aces:transformId:v1.5:ODT.Academy.P3D65_48nits.a1.1.0

      AMF Components
      --------------
      ACEStransformID: urn:ampas:aces:transformId:v1.5:InvODT.Academy.P3D60_48nits.a1.0.3
      ACEStransformID: urn:ampas:aces:transformId:v1.5:InvODT.Academy.P3D65_48nits.a1.1.0
    from_scene_reference: !<BuiltinTransform> {style: ACES-OUTPUT - ACES2065-1_to_CIE-XYZ-D65 - SDR-CINEMA_1.0}

  - !<ViewTransform>
    name: ACES 1.1 - SDR Cinema (Rec.709 lim)
    description: |
      Component of ACES Output Transforms for SDR cinema

      ACEStransformID: urn:ampas:aces:transformId:v1.5:ODT.Academy.P3D65_Rec709limited_48nits.a1.1.0
    from_scene_reference: !<BuiltinTransform> {style: ACES-OUTPUT - ACES2065-1_to_CIE-XYZ-D65 - SDR-CINEMA-REC709lim_1.1}

  - !<ViewTransform>
    name: ACES 1.0 - SDR Cinema (D60 sim on DCI)
    description: |
      Component of ACES Output Transforms for SDR DCI cinema simulating D60 white

      ACEStransformID: urn:ampas:aces:transformId:v1.5:ODT.Academy.P3DCI_48nits.a1.0.3

      AMF Components
      --------------
      ACEStransformID: urn:ampas:aces:transformId:v1.5:InvODT.Academy.P3DCI_48nits.a1.0.3
    from_scene_reference: !<BuiltinTransform> {style: ACES-OUTPUT - ACES2065-1_to_CIE-XYZ-D65 - SDR-CINEMA-D60sim-DCI_1.0}

  - !<ViewTransform>
    name: ACES 1.1 - SDR Cinema (D60 sim on D65)
    description: |
      Component of ACES Output Transforms for SDR D65 cinema simulating D60 white

      ACEStransformID: urn:ampas:aces:transformId:v1.5:ODT.Academy.P3D65_D60sim_48nits.a1.1.0

      AMF Components
      --------------
      ACEStransformID: urn:ampas:aces:transformId:v1.5:InvODT.Academy.P3D65_D60sim_48nits.a1.1.0
    from_scene_reference: !<BuiltinTransform> {style: ACES-OUTPUT - ACES2065-1_to_CIE-XYZ-D65 - SDR-CINEMA-D60sim-D65_1.1}

  - !<ViewTransform>
    name: ACES 1.1 - SDR Cinema (D65 sim on DCI)
    description: |
      Component of ACES Output Transforms for SDR DCI cinema simulating D65 white

      ACEStransformID: urn:ampas:aces:transformId:v1.5:ODT.Academy.P3DCI_D65sim_48nits.a1.1.0

      AMF Components
      --------------
      ACEStransformID: urn:ampas:aces:transformId:v1.5:InvODT.Academy.P3DCI_D65sim_48nits.a1.1.0
    from_scene_reference: !<BuiltinTransform> {style: ACES-OUTPUT - ACES2065-1_to_CIE-XYZ-D65 - SDR-CINEMA-D65sim-DCI_1.1}

  - !<ViewTransform>
    name: "ACES 1.1 - HDR Cinema (108 nits & P3 lim)"
    description: |
      Component of ACES Output Transforms for 108 nit HDR D65 cinema

      ACEStransformID: urn:ampas:aces:transformId:v1.5:RRTODT.Academy.P3D65_108nits_7point2nits_ST2084.a1.1.0

      AMF Components
      --------------
      ACEStransformID: urn:ampas:aces:transformId:v1.5:InvRRTODT.Academy.P3D65_108nits_7point2nits_ST2084.a1.1.0
    from_scene_reference: !<BuiltinTransform> {style: ACES-OUTPUT - ACES2065-1_to_CIE-XYZ-D65 - HDR-CINEMA-108nit-7.2nit-P3lim_1.1}

  - !<ViewTransform>
    name: Un-tone-mapped
    from_scene_reference: !<BuiltinTransform> {style: UTILITY - ACES-AP0_to_CIE-XYZ-D65_BFD}

  - !<ViewTransform>
    name: Calibrated AOTO_Wall2 - AOTO_Acheivable - REDWideGamutRGB - EOTF_CS - Soft_Rolloff_s770-10000_to_1100_nits
    description: Calibrated Output - OpenVPCal AOTO_Acheivable REDWideGamutRGB - EOTF_CS With Rolloff Soft_Rolloff_s770-10000_to_1100_nits
    from_scene_reference: !<GroupTransform>
      children:
        - !<LookTransform> {src: ACES2065-1, dst: ACES2065-1, looks: Soft_Rolloff_s770-10000_to_1100_nits}
        - !<ColorSpaceTransform> {src: ACES2065-1, dst: Calibration CSC - AOTO_Wall2 - REDWideGamutRGB - EOTF_CS}
        - !<BuiltinTransform> {style: UTILITY - ACES-AP0_to_CIE-XYZ-D65_BFD}

  - !<ViewTransform>
    name: Calibrated AOTO_Wall2 - AOTO_Acheivable - REDWideGamutRGB - EOTF_CS - Medium_Rolloff_s880-10000_to_1100_nits
    description: Calibrated Output - OpenVPCal AOTO_Acheivable REDWideGamutRGB - EOTF_CS With Rolloff Medium_Rolloff_s880-10000_to_1100_nits
    from_scene_reference: !<GroupTransform>
      children:
        - !<LookTransform> {src: ACES2065-1, dst: ACES2065-1, looks: Medium_Rolloff_s880-10000_to_1100_nits}
        - !<ColorSpaceTransform> {src: ACES2065-1, dst: Calibration CSC - AOTO_Wall2 - REDWideGamutRGB - EOTF_CS}
        - !<BuiltinTransform> {style: UTILITY - ACES-AP0_to_CIE-XYZ-D65_BFD}

  - !<ViewTransform>
    name: Calibrated AOTO_Wall2 - AOTO_Acheivable - REDWideGamutRGB - EOTF_CS - Hard_Rolloff_s990-10000_to_1100_nits
    description: Calibrated Output - OpenVPCal AOTO_Acheivable REDWideGamutRGB - EOTF_CS With Rolloff Hard_Rolloff_s990-10000_to_1100_nits
    from_scene_reference: !<GroupTransform>
      children:
        - !<LookTransform> {src: ACES2065-1, dst: ACES2065-1, looks: Hard_Rolloff_s990-10000_to_1100_nits}
        - !<ColorSpaceTransform> {src: ACES2065-1, dst: Calibration CSC - AOTO_Wall2 - REDWideGamutRGB - EOTF_CS}
        - !<BuiltinTransform> {style: UTILITY - ACES-AP0_to_CIE-XYZ-D65_BFD}

  - !<ViewTransform>
    name: Pre-Calibration - Default Target
    description: The OpenVPCal Pre Calibrated native Output
    from_scene_reference: !<BuiltinTransform> {style: UTILITY - ACES-AP0_to_CIE-XYZ-D65_BFD}

  - !<ViewTransform>
    name: Calibrated AOTO_Wall2 - AOTO_Acheivable - REDWideGamutRGB - EOTF_CS
    description: Calibrated Output - OpenVPCal AOTO_Acheivable REDWideGamutRGB - EOTF_CS
    from_scene_reference: !<GroupTransform>
      children:
        - !<ColorSpaceTransform> {src: ACES2065-1, dst: Calibration CSC - AOTO_Wall2 - REDWideGamutRGB - EOTF_CS}
        - !<BuiltinTransform> {style: UTILITY - ACES-AP0_to_CIE-XYZ-D65_BFD}

display_colorspaces:
  - !<ColorSpace>
    name: CIE-XYZ-D65
    aliases: [cie_xyz_d65]
    family: ""
    equalitygroup: ""
    bitdepth: 32f
    description: The "CIE XYZ (D65)" display connection colorspace.
    isdata: false
    allocation: uniform

  - !<ColorSpace>
    name: sRGB - Display
    aliases: [srgb_display]
    family: Display
    equalitygroup: ""
    bitdepth: 32f
    description: |
      Convert CIE XYZ (D65 white) to sRGB (piecewise EOTF)

      AMF Components
      --------------
      ACEStransformID: urn:ampas:aces:transformId:v1.5:ODT.Academy.RGBmonitor_100nits_dim.a1.0.3
