packages/open_vp_cal/src/open_vp_cal/resources/HLG_to_linear.cube
LUT_1D_SIZE 4096
LUT_1D_INPUT_RANGE 0.000000000000 1.000000000000

0.000000000000 0.000000000000 0.000000000000
0.000000238535 0.000000238535 0.000000238535
0.000000954140 0.000000954140 0.000000954140
0.000002146815 0.000002146815 0.000002146815
0.000003816561 0.000003816561 0.000003816561
0.000005963376 0.000005963376 0.000005963376
0.000008587261 0.000008587261 0.000008587261
0.000011688217 0.000011688217 0.000011688217
0.000015266242 0.000015266242 0.000015266242
0.000019321338 0.000019321338 0.000019321338
0.000023853504 0.000023853504 0.000023853504
0.000028862739 0.000028862739 0.000028862739
0.000034349045 0.000034349045 0.000034349045
0.000040312421 0.000040312421 0.000040312421
0.000046752867 0.000046752867 0.000046752867
0.000053670383 0.000053670383 0.000053670383
0.000061064969 0.000061064969 0.000061064969
0.000068936626 0.000068936626 0.000068936626
0.000077285352 0.000077285352 0.000077285352
0.000086111148 0.000086111148 0.000086111148
0.000095414015 0.000095414015 0.000095414015
0.000105193951 0.000105193951 0.000105193951
0.000115450958 0.000115450958 0.000115450958
0.000126185035 0.000126185035 0.000126185035
0.000137396181 0.000137396181 0.000137396181
0.000149084398 0.000149084398 0.000149084398
0.000161249685 0.000161249685 0.000161249685
0.000173892042 0.000173892042 0.000173892042
0.000187011469 0.000187011469 0.000187011469
0.000200607966 0.000200607966 0.000200607966
0.000214681533 0.000214681533 0.000214681533
0.000229232171 0.000229232171 0.000229232171
0.000244259878 0.000244259878 0.000244259878
0.000259764655 0.000259764655 0.000259764655
0.000275746503 0.000275746503 0.000275746503
0.000292205420 0.000292205420 0.000292205420
0.000309141408 0.000309141408 0.000309141408
0.000326554466 0.000326554466 0.000326554466
0.000344444594 0.000344444594 0.000344444594
0.000362811791 0.000362811791 0.000362811791
0.000381656059 0.000381656059 0.000381656059
0.000400977397 0.000400977397 0.000400977397
0.000420775805 0.000420775805 0.000420775805
0.000441051284 0.000441051284 0.000441051284
0.000461803832 0.000461803832 0.000461803832
0.000483033450 0.000483033450 0.000483033450
0.000504740138 0.000504740138 0.000504740138
0.000526923897 0.000526923897 0.000526923897
0.000549584725 0.000549584725 0.000549584725
0.000572722624 0.000572722624 0.000572722624
0.000596337593 0.000596337593 0.000596337593
0.000620429631 0.000620429631 0.000620429631
0.000644998740 0.000644998740 0.000644998740
0.000670044919 0.000670044919 0.000670044919
0.000695568168 0.000695568168 0.000695568168
0.000721568487 0.000721568487 0.000721568487
0.000748045876 0.000748045876 0.000748045876
0.000775000335 0.000775000335 0.000775000335
0.000802431865 0.000802431865 0.000802431865
0.000830340464 0.000830340464 0.000830340464
0.000858726133 0.000858726133 0.000858726133
0.000887588873 0.000887588873 0.000887588873
0.000916928682 0.000916928682 0.000916928682
0.000946745562 0.000946745562 0.000946745562
0.000977039512 0.000977039512 0.000977039512
0.001007810532 0.001007810532 0.001007810532
0.001039058621 0.001039058621 0.001039058621
0.001070783781 0.001070783781 0.001070783781
0.001102986011 0.001102986011 0.001102986011
0.001135665311 0.001135665311 0.001135665311
0.001168821682 0.001168821682 0.001168821682
0.001202455122 0.001202455122 0.001202455122
0.001236565632 0.001236565632 0.001236565632
0.001271153213 0.001271153213 0.001271153213
0.001306217863 0.001306217863 0.001306217863
0.001341759584 0.001341759584 0.001341759584
0.001377778374 0.001377778374 0.001377778374
0.001414274235 0.001414274235 0.001414274235
0.001451247166 0.001451247166 0.001451247166
0.001488697166 0.001488697166 0.001488697166
0.001526624237 0.001526624237 0.001526624237
0.001565028378 0.001565028378 0.001565028378
0.001603909589 0.001603909589 0.001603909589
0.001643267870 0.001643267870 0.001643267870
0.001683103222 0.001683103222 0.001683103222
0.001723415643 0.001723415643 0.001723415643
0.001764205134 0.001764205134 0.001764205134
0.001805471696 0.001805471696 0.001805471696
0.001847215327 0.001847215327 0.001847215327
0.001889436029 0.001889436029 0.001889436029
0.001932133800 0.001932133800 0.001932133800
0.001975308642 0.001975308642 0.001975308642
0.002018960554 0.002018960554 0.002018960554
0.002063089536 0.002063089536 0.002063089536
0.002107695588 0.002107695588 0.002107695588
0.002152778710 0.002152778710 0.002152778710
0.002198338902 0.002198338902 0.002198338902
0.002244376164 0.002244376164 0.002244376164
0.002290890496 0.002290890496 0.002290890496
0.002337881898 0.002337881898 0.002337881898
0.002385350371 0.002385350371 0.002385350371
0.002433295913 0.002433295913 0.002433295913
0.002481718526 0.002481718526 0.002481718526
0.002530618208 0.002530618208 0.002530618208
0.002579994961 0.002579994961 0.002579994961
0.002629848784 0.002629848784 0.002629848784
0.002680179677 0.002680179677 0.002680179677
0.002730987639 0.002730987639 0.002730987639
0.002782272672 0.002782272672 0.002782272672
0.002834034775 0.002834034775 0.002834034775
0.002886273949 0.002886273949 0.002886273949
0.002938990192 0.002938990192 0.002938990192
0.002992183505 0.002992183505 0.002992183505
0.003045853888 0.003045853888 0.003045853888
0.003100001342 0.003100001342 0.003100001342
0.003154625865 0.003154625865 0.003154625865
0.003209727459 0.003209727459 0.003209727459
0.003265306122 0.003265306122 0.003265306122
0.003321361856 0.003321361856 0.003321361856
0.003377894660 0.003377894660 0.003377894660
0.003434904534 0.003434904534 0.003434904534
0.003492391478 0.003492391478 0.003492391478
0.003550355492 0.003550355492 0.003550355492
0.003608796576 0.003608796576 0.003608796576
0.003667714730 0.003667714730 0.003667714730
0.003727109954 0.003727109954 0.003727109954
0.003786982249 0.003786982249 0.003786982249
0.003847331613 0.003847331613 0.003847331613
0.003908158047 0.003908158047 0.003908158047
0.003969461552 0.003969461552 0.003969461552
0.004031242126 0.004031242126 0.004031242126
0.004093499771 0.004093499771 0.004093499771
0.004156234486 0.004156234486 0.004156234486
0.004219446271 0.004219446271 0.004219446271
0.004283135126 0.004283135126 0.004283135126
0.004347301051 0.004347301051 0.004347301051
0.004411944046 0.004411944046 0.004411944046
0.004477064111 0.004477064111 0.004477064111
0.004542661246 0.004542661246 0.004542661246
0.004608735451 0.004608735451 0.004608735451
0.004675286727 0.004675286727 0.004675286727
0.004742315072 0.004742315072 0.004742315072
0.004809820487 0.004809820487 0.004809820487
0.004877802973 0.004877802973 0.004877802973
0.004946262529 0.004946262529 0.004946262529
0.005015199154 0.005015199154 0.005015199154
0.005084612850 0.005084612850 0.005084612850
0.005154503616 0.005154503616 0.005154503616
0.005224871452 0.005224871452 0.005224871452
0.005295716358 0.005295716358 0.005295716358
0.005367038334 0.005367038334 0.005367038334
0.005438837380 0.005438837380 0.005438837380
0.005511113496 0.005511113496 0.005511113496
0.005583866683 0.005583866683 0.005583866683
0.005657096939 0.005657096939 0.005657096939
0.005730804266 0.005730804266 0.005730804266
0.005804988662 0.005804988662 0.005804988662
0.005879650129 0.005879650129 0.005879650129
0.005954788665 0.005954788665 0.005954788665
0.006030404272 0.006030404272 0.006030404272
0.006106496949 0.006106496949 0.006106496949
0.006183066696 0.006183066696 0.006183066696
0.006260113513 0.006260113513 0.006260113513
0.006337637400 0.006337637400 0.006337637400
0.006415638357 0.006415638357 0.006415638357
0.006494116384 0.006494116384 0.006494116384
0.006573071481 0.006573071481 0.006573071481
0.006652503649 0.006652503649 0.006652503649
0.006732412886 0.006732412886 0.006732412886
0.006812799194 0.006812799194 0.006812799194
0.006893662571 0.006893662571 0.006893662571
0.006975003019 0.006975003019 0.006975003019
0.007056820537 0.007056820537 0.007056820537
0.007139115124 0.007139115124 0.007139115124
0.007221886782 0.007221886782 0.007221886782
0.007305135510 0.007305135510 0.007305135510
0.007388861308 0.007388861308 0.007388861308
0.007473064176 0.007473064176 0.007473064176
0.007557744115 0.007557744115 0.007557744115
0.007642901123 0.007642901123 0.007642901123
0.007728535201 0.007728535201 0.007728535201
0.007814646349 0.007814646349 0.007814646349
0.007901234568 0.007901234568 0.007901234568
0.007988299856 0.007988299856 0.007988299856
0.008075842215 0.008075842215 0.008075842215
0.008163861644 0.008163861644 0.008163861644
0.008252358142 0.008252358142 0.008252358142
0.008341331711 0.008341331711 0.008341331711
0.008430782350 0.008430782350 0.008430782350
0.008520710059 0.008520710059 0.008520710059
0.008611114838 0.008611114838 0.008611114838
0.008701996687 0.008701996687 0.008701996687
0.008793355607 0.008793355607 0.008793355607
0.008885191596 0.008885191596 0.008885191596
0.008977504655 0.008977504655 0.008977504655
0.009070294785 0.009070294785 0.009070294785
0.009163561984 0.009163561984 0.009163561984
0.009257306254 0.009257306254 0.009257306254
0.009351527593 0.009351527593 0.009351527593
0.009446226003 0.009446226003 0.009446226003
0.009541401483 0.009541401483 0.009541401483
0.009637054033 0.009637054033 0.009637054033
0.009733183653 0.009733183653 0.009733183653
0.009829790343 0.009829790343 0.009829790343
0.009926874103 0.009926874103 0.009926874103
0.010024434933 0.010024434933 0.010024434933
0.010122472833 0.010122472833 0.010122472833
0.010220987803 0.010220987803 0.010220987803
0.010319979844 0.010319979844 0.010319979844
0.010419448954 0.010419448954 0.010419448954
0.010519395135 0.010519395135 0.010519395135
0.010619818385 0.010619818385 0.010619818385
0.010720718706 0.010720718706 0.010720718706
0.010822096097 0.010822096097 0.010822096097
0.010923950558 0.010923950558 0.010923950558
0.011026282089 0.011026282089 0.011026282089
0.011129090690 0.011129090690 0.011129090690
0.011232376361 0.011232376361 0.011232376361
0.011336139102 0.011336139102 0.011336139102
0.011440378913 0.011440378913 0.011440378913
0.011545095794 0.011545095794 0.011545095794
0.011650289746 0.011650289746 0.011650289746
0.011755960767 0.011755960767 0.011755960767
0.011862108858 0.011862108858 0.011862108858
0.011968734020 0.011968734020 0.011968734020
0.012075836252 0.012075836252 0.012075836252
0.012183415553 0.012183415553 0.012183415553
0.012291471925 0.012291471925 0.012291471925
0.012400005367 0.012400005367 0.012400005367
0.012509015879 0.012509015879 0.012509015879
0.012618503461 0.012618503461 0.012618503461
0.012728468113 0.012728468113 0.012728468113
0.012838909835 0.012838909835 0.012838909835
0.012949828627 0.012949828627 0.012949828627
0.013061224490 0.013061224490 0.013061224490
0.013173097422 0.013173097422 0.013173097422
0.013285447425 0.013285447425 0.013285447425
0.013398274497 0.013398274497 0.013398274497
0.013511578640 0.013511578640 0.013511578640
0.013625359852 0.013625359852 0.013625359852
0.013739618135 0.013739618135 0.013739618135
0.013854353488 0.013854353488 0.013854353488
0.013969565911 0.013969565911 0.013969565911
0.014085255404 0.014085255404 0.014085255404
0.014201421967 0.014201421967 0.014201421967
0.014318065600 0.014318065600 0.014318065600
0.014435186303 0.014435186303 0.014435186303
0.014552784077 0.014552784077 0.014552784077
0.014670858920 0.014670858920 0.014670858920
0.014789410833 0.014789410833 0.014789410833
0.014908439817 0.014908439817 0.014908439817
0.015027945870 0.015027945870 0.015027945870
0.015147928994 0.015147928994 0.015147928994
0.015268389188 0.015268389188 0.015268389188
0.015389326452 0.015389326452 0.015389326452
0.015510740785 0.015510740785 0.015510740785
0.015632632189 0.015632632189 0.015632632189
0.015755000663 0.015755000663 0.015755000663
0.015877846208 0.015877846208 0.015877846208
0.016001168822 0.016001168822 0.016001168822
0.016124968506 0.016124968506 0.016124968506
0.016249245260 0.016249245260 0.016249245260
0.016373999085 0.016373999085 0.016373999085
0.016499229979 0.016499229979 0.016499229979
0.016624937944 0.016624937944 0.016624937944
0.016751122978 0.016751122978 0.016751122978
0.016877785083 0.016877785083 0.016877785083
0.017004924258 0.017004924258 0.017004924258
0.017132540503 0.017132540503 0.017132540503
0.017260633817 0.017260633817 0.017260633817
0.017389204202 0.017389204202 0.017389204202
0.017518251657 0.017518251657 0.017518251657
0.017647776183 0.017647776183 0.017647776183
0.017777777778 0.017777777778 0.017777777778
0.017908256443 0.017908256443 0.017908256443
0.018039212178 0.018039212178 0.018039212178
0.018170644984 0.018170644984 0.018170644984
0.018302554859 0.018302554859 0.018302554859
0.018434941805 0.018434941805 0.018434941805
0.018567805821 0.018567805821 0.018567805821
0.018701146906 0.018701146906 0.018701146906
0.018834965062 0.018834965062 0.018834965062
0.018969260288 0.018969260288 0.018969260288
0.019104032584 0.019104032584 0.019104032584
0.019239281950 0.019239281950 0.019239281950
0.019375008386 0.019375008386 0.019375008386
0.019511211892 0.019511211892 0.019511211892
0.019647892468 0.019647892468 0.019647892468
0.019785050115 0.019785050115 0.019785050115
0.019922684831 0.019922684831 0.019922684831
0.020060796618 0.020060796618 0.020060796618
0.020199385474 0.020199385474 0.020199385474
0.020338451401 0.020338451401 0.020338451401
0.020477994397 0.020477994397 0.020477994397
0.020618014464 0.020618014464 0.020618014464
0.020758511601 0.020758511601 0.020758511601
0.020899485808 0.020899485808 0.020899485808
0.021040937085 0.021040937085 0.021040937085
0.021182865432 0.021182865432 0.021182865432
0.021325270849 0.021325270849 0.021325270849
0.021468153336 0.021468153336 0.021468153336
0.021611512894 0.021611512894 0.021611512894
0.021755349521 0.021755349521 0.021755349521
0.021899663218 0.021899663218 0.021899663218
0.022044453986 0.022044453986 0.022044453986
0.022189721823 0.022189721823 0.022189721823
0.022335466731 0.022335466731 0.022335466731
0.022481688709 0.022481688709 0.022481688709
0.022628387757 0.022628387757 0.022628387757
0.022775563874 0.022775563874 0.022775563874
0.022923217062 0.022923217062 0.022923217062
0.023071347320 0.023071347320 0.023071347320
0.023219954649 0.023219954649 0.023219954649
0.023369039047 0.023369039047 0.023369039047
0.023518600515 0.023518600515 0.023518600515
0.023668639053 0.023668639053 0.023668639053
0.023819154662 0.023819154662 0.023819154662
0.023970147340 0.023970147340 0.023970147340
0.024121617089 0.024121617089 0.024121617089
0.024273563907 0.024273563907 0.024273563907
0.024425987796 0.024425987796 0.024425987796
0.024578888755 0.024578888755 0.024578888755
0.024732266784 0.024732266784 0.024732266784
0.024886121882 0.024886121882 0.024886121882
0.025040454051 0.025040454051 0.025040454051
0.025195263291 0.025195263291 0.025195263291
0.025350549600 0.025350549600 0.025350549600
0.025506312979 0.025506312979 0.025506312979
0.025662553428 0.025662553428 0.025662553428
0.025819270947 0.025819270947 0.025819270947
0.025976465537 0.025976465537 0.025976465537
0.026134137196 0.026134137196 0.026134137196
0.026292285926 0.026292285926 0.026292285926
0.026450911726 0.026450911726 0.026450911726
0.026610014595 0.026610014595 0.026610014595
0.026769594535 0.026769594535 0.026769594535
0.026929651545 0.026929651545 0.026929651545
0.027090185625 0.027090185625 0.027090185625
0.027251196775 0.027251196775 0.027251196775
0.027412684995 0.027412684995 0.027412684995
0.027574650285 0.027574650285 0.027574650285
0.027737092646 0.027737092646 0.027737092646
0.027900012076 0.027900012076 0.027900012076
0.028063408576 0.028063408576 0.028063408576
0.028227282147 0.028227282147 0.028227282147
0.028391632787 0.028391632787 0.028391632787
0.028556460498 0.028556460498 0.028556460498
0.028721765279 0.028721765279 0.028721765279
0.028887547129 0.028887547129 0.028887547129
0.029053806050 0.029053806050 0.029053806050
0.029220542041 0.029220542041 0.029220542041
0.029387755102 0.029387755102 0.029387755102
0.029555445233 0.029555445233 0.029555445233
0.029723612434 0.029723612434 0.029723612434
0.029892256705 0.029892256705 0.029892256705
0.030061378047 0.030061378047 0.030061378047
0.030230976458 0.030230976458 0.030230976458
0.030401051940 0.030401051940 0.030401051940
0.030571604491 0.030571604491 0.030571604491
0.030742634113 0.030742634113 0.030742634113
0.030914140804 0.030914140804 0.030914140804
0.031086124566 0.031086124566 0.031086124566
0.031258585398 0.031258585398 0.031258585398
0.031431523300 0.031431523300 0.031431523300
0.031604938272 0.031604938272 0.031604938272
0.031778830314 0.031778830314 0.031778830314
0.031953199426 0.031953199426 0.031953199426
0.032128045608 0.032128045608 0.032128045608
0.032303368860 0.032303368860 0.032303368860
0.032479169182 0.032479169182 0.032479169182
0.032655446575 0.032655446575 0.032655446575
0.032832201037 0.032832201037 0.032832201037
0.033009432570 0.033009432570 0.033009432570
0.033187141172 0.033187141172 0.033187141172
0.033365326845 0.033365326845 0.033365326845
0.033543989588 0.033543989588 0.033543989588
0.033723129401 0.033723129401 0.033723129401
0.033902746284 0.033902746284 0.033902746284
0.034082840237 0.034082840237 0.034082840237
0.034263411260 0.034263411260 0.034263411260
0.034444459353 0.034444459353 0.034444459353
0.034625984516 0.034625984516 0.034625984516
0.034807986749 0.034807986749 0.034807986749
0.034990466053 0.034990466053 0.034990466053
0.035173422426 0.035173422426 0.035173422426
0.035356855870 0.035356855870 0.035356855870
0.035540766383 0.035540766383 0.035540766383
0.035725153967 0.035725153967 0.035725153967
0.035910018621 0.035910018621 0.035910018621
0.036095360344 0.036095360344 0.036095360344
0.036281179138 0.036281179138 0.036281179138
0.036467475002 0.036467475002 0.036467475002
0.036654247936 0.036654247936 0.036654247936
0.036841497940 0.036841497940 0.036841497940
0.037029225015 0.037029225015 0.037029225015
0.037217429159 0.037217429159 0.037217429159
0.037406110373 0.037406110373 0.037406110373
0.037595268658 0.037595268658 0.037595268658
0.037784904012 0.037784904012 0.037784904012
0.037975016437 0.037975016437 0.037975016437
0.038165605931 0.038165605931 0.038165605931
0.038356672496 0.038356672496 0.038356672496
0.038548216131 0.038548216131 0.038548216131
0.038740236835 0.038740236835 0.038740236835
0.038932734610 0.038932734610 0.038932734610
0.039125709455 0.039125709455 0.039125709455
0.039319161370 0.039319161370 0.039319161370
0.039513090356 0.039513090356 0.039513090356
0.039707496411 0.039707496411 0.039707496411
0.039902379536 0.039902379536 0.039902379536
0.040097739731 0.040097739731 0.040097739731
0.040293576997 0.040293576997 0.040293576997
0.040489891332 0.040489891332 0.040489891332
0.040686682738 0.040686682738 0.040686682738
0.040883951214 0.040883951214 0.040883951214
0.041081696759 0.041081696759 0.041081696759
0.041279919375 0.041279919375 0.041279919375
0.041478619061 0.041478619061 0.041478619061
0.041677795817 0.041677795817 0.041677795817
0.041877449643 0.041877449643 0.041877449643
0.042077580539 0.042077580539 0.042077580539
0.042278188505 0.042278188505 0.042278188505
0.042479273542 0.042479273542 0.042479273542
0.042680835648 0.042680835648 0.042680835648
0.042882874824 0.042882874824 0.042882874824
0.043085391071 0.043085391071 0.043085391071
0.043288384387 0.043288384387 0.043288384387
0.043491854774 0.043491854774 0.043491854774
0.043695802231 0.043695802231 0.043695802231
0.043900226757 0.043900226757 0.043900226757
0.044105128354 0.044105128354 0.044105128354
0.044310507021 0.044310507021 0.044310507021
0.044516362758 0.044516362758 0.044516362758
0.044722695565 0.044722695565 0.044722695565
0.044929505442 0.044929505442 0.044929505442
0.045136792390 0.045136792390 0.045136792390
0.045344556407 0.045344556407 0.045344556407
0.045552797494 0.045552797494 0.045552797494
0.045761515652 0.045761515652 0.045761515652
0.045970710879 0.045970710879 0.045970710879
0.046180383177 0.046180383177 0.046180383177
0.046390532544 0.046390532544 0.046390532544
0.046601158982 0.046601158982 0.046601158982
0.046812262490 0.046812262490 0.046812262490
0.047023843068 0.047023843068 0.047023843068
0.047235900716 0.047235900716 0.047235900716
0.047448435434 0.047448435434 0.047448435434
0.047661447222 0.047661447222 0.047661447222
0.047874936080 0.047874936080 0.047874936080
0.048088902008 0.048088902008 0.048088902008
0.048303345007 0.048303345007 0.048303345007
0.048518265075 0.048518265075 0.048518265075
0.048733662214 0.048733662214 0.048733662214
0.048949536422 0.048949536422 0.048949536422
0.049165887701 0.049165887701 0.049165887701
0.049382716049 0.049382716049 0.049382716049
0.049600021468 0.049600021468 0.049600021468
0.049817803957 0.049817803957 0.049817803957
0.050036063516 0.050036063516 0.050036063516
0.050254800145 0.050254800145 0.050254800145
0.050474013844 0.050474013844 0.050474013844
0.050693704613 0.050693704613 0.050693704613
0.050913872452 0.050913872452 0.050913872452
0.051134517362 0.051134517362 0.051134517362
0.051355639341 0.051355639341 0.051355639341
0.051577238390 0.051577238390 0.051577238390
0.051799314510 0.051799314510 0.051799314510
0.052021867700 0.052021867700 0.052021867700
0.052244897959 0.052244897959 0.052244897959
0.052468405289 0.052468405289 0.052468405289
0.052692389689 0.052692389689 0.052692389689
0.052916851159 0.052916851159 0.052916851159
0.053141789699 0.053141789699 0.053141789699
0.053367205309 0.053367205309 0.053367205309
0.053593097989 0.053593097989 0.053593097989
0.053819467739 0.053819467739 0.053819467739
0.054046314559 0.054046314559 0.054046314559
0.054273638449 0.054273638449 0.054273638449
0.054501439410 0.054501439410 0.054501439410
0.054729717440 0.054729717440 0.054729717440
0.054958472541 0.054958472541 0.054958472541
0.055187704712 0.055187704712 0.055187704712
0.055417413952 0.055417413952 0.055417413952
0.055647600263 0.055647600263 0.055647600263
0.055878263644 0.055878263644 0.055878263644
0.056109404095 0.056109404095 0.056109404095
0.056341021616 0.056341021616 0.056341021616
0.056573116207 0.056573116207 0.056573116207
0.056805687868 0.056805687868 0.056805687868
0.057038736599 0.057038736599 0.057038736599
0.057272262400 0.057272262400 0.057272262400
0.057506265272 0.057506265272 0.057506265272
0.057740745213 0.057740745213 0.057740745213
0.057975702225 0.057975702225 0.057975702225
0.058211136306 0.058211136306 0.058211136306
0.058447047458 0.058447047458 0.058447047458
0.058683435680 0.058683435680 0.058683435680
0.058920300972 0.058920300972 0.058920300972
0.059157643333 0.059157643333 0.059157643333
0.059395462765 0.059395462765 0.059395462765
0.059633759267 0.059633759267 0.059633759267
0.059872532840 0.059872532840 0.059872532840
0.060111783482 0.060111783482 0.060111783482
0.060351511194 0.060351511194 0.060351511194
0.060591715976 0.060591715976 0.060591715976
0.060832397829 0.060832397829 0.060832397829
0.061073556751 0.061073556751 0.061073556751
0.061315192744 0.061315192744 0.061315192744
0.061557305806 0.061557305806 0.061557305806
0.061799895939 0.061799895939 0.061799895939
0.062042963142 0.062042963142 0.062042963142
0.062286507415 0.062286507415 0.062286507415
0.062530528758 0.062530528758 0.062530528758
0.062775027171 0.062775027171 0.062775027171
0.063020002654 0.063020002654 0.063020002654
0.063265455207 0.063265455207 0.063265455207
0.063511384830 0.063511384830 0.063511384830
0.063757791523 0.063757791523 0.063757791523
0.064004675287 0.064004675287 0.064004675287
0.064252036120 0.064252036120 0.064252036120
0.064499874024 0.064499874024 0.064499874024
0.064748188997 0.064748188997 0.064748188997
0.064996981041 0.064996981041 0.064996981041
0.065246250155 0.065246250155 0.065246250155
0.065495996338 0.065495996338 0.065495996338
0.065746219592 0.065746219592 0.065746219592
0.065996919916 0.065996919916 0.065996919916
0.066248097310 0.066248097310 0.066248097310
0.066499751774 0.066499751774 0.066499751774
0.066751883309 0.066751883309 0.066751883309
0.067004491913 0.067004491913 0.067004491913
