tests/test_open_vp_cal/resources/Sample_Project8_ACES_CCT_LUT/export/calibration/Wall1_REDWideGamutRGB_ITU-R BT.2020_ST 2084_EOTF_CS_ACES_CCT_IN_OUT.cube
LUT_3D_SIZE 4
-0.936074 -1.054755 -1.037154
0.303850 0.042088 0.057801
0.672520 -2.836931 0.293609
0.991991 -141.083969 0.620584
-0.008340 0.301477 0.058829
0.309623 0.325460 0.059157
0.676314 -2.384445 0.302875
0.992077 -141.222275 0.620737
-5.590910 0.650979 -0.907034
-5.706576 0.652643 -0.926946
0.655132 0.662329 -0.716302
0.996185 -127.509262 0.629380
-272.624268 0.970009 -47.131351
-272.741364 0.970044 -47.151627
-278.723663 0.971830 -48.183609
0.975803 0.984291 -39.578331
-0.100214 -0.027499 0.344669
0.349309 -0.080303 0.344807
0.672816 -2.936315 0.377831
0.991998 -141.166153 0.622756
-0.237719 0.331049 0.344528
0.342999 0.347349 0.344185
0.676476 -2.104385 0.381279
0.992083 -141.304443 0.622905
-5.835231 0.654380 -0.924510
-5.951316 0.655977 -0.942572
0.660882 0.665008 -0.605925
0.996190 -127.376862 0.631382
-272.860016 0.970080 -47.170338
-272.977173 0.970115 -47.190617
-278.959412 0.971900 -48.222561
0.975925 0.984346 -39.584461
-10.214283 0.427106 0.670199
-8.280861 0.446290 0.670132
0.674850 0.414100 0.671069
0.992311 -145.950485 0.700040
-10.357057 0.451654 0.670200
-9.537355 0.467674 0.670112
0.674610 0.445530 0.671054
0.992396 -146.085297 0.700098
-16.494232 0.661731 0.669871
-16.601658 0.663194 0.669768
0.660708 0.672150 0.669942
0.996392 -117.568596 0.703868
-285.027618 0.973627 -48.577404
-285.145050 0.973661 -48.596394
-291.139771 0.975370 -49.569893
0.981914 0.987058 -35.907139
-509.605103 0.749438 0.991468
-509.670624 0.749944 0.991466
-461.997650 0.770911 0.991376
0.994964 0.740769 0.992269
-509.737213 0.749967 0.991468
-509.803589 0.750471 0.991466
-463.013123 0.771345 0.991376
0.994961 0.741364 0.992269
-516.157104 0.772464 0.991477
-516.239319 0.772849 0.991475
-499.639587 0.789973 0.991374
0.994759 0.768404 0.992260
-811.931824 0.980220 0.991696
-812.039734 0.980251 0.991694
-817.547058 0.981823 0.991585
0.982122 0.993196 0.991493
