tests/test_open_vp_cal/resources/Sample_Project8_ACES_CCT_LUT/export/calibration/Wall1_REDWideGamutRGB_ITU-R BT.2020_ST 2084_EOTF_CS_ACES_CCT_IN_OUT.cube
LUT_3D_SIZE 8
-0.936074 -1.054755 -1.037154
-0.058946 -0.409360 -0.398995
0.084652 0.072182 0.072551
0.447569 -0.103643 -0.013147
0.583628 -0.910463 0.171615
0.718963 -5.042285 0.341194
0.853888 -26.313343 0.483918
0.991991 -141.083969 0.620584
-0.028473 0.034881 -0.020974
0.068877 0.097014 0.072208
0.246015 0.097809 0.065964
0.456201 0.073194 -0.019919
0.585758 -0.924418 0.130527
0.719382 -5.065279 0.342048
0.853971 -26.337791 0.484043
0.992007 -141.109009 0.620612
0.037634 0.232767 0.066795
0.016892 0.270888 0.063197
0.215672 0.272334 0.064826
0.453292 0.272334 -0.012349
0.588036 0.232309 0.055842
0.720346 -5.108900 0.343997
0.854162 -26.393744 0.484333
0.992043 -141.167282 0.620676
-0.256667 0.416787 0.015814
-0.277709 0.421884 0.012171
-0.218133 0.431443 0.005512
0.434537 0.430429 0.027896
0.585882 0.425406 -0.242845
0.722891 0.345139 0.359872
0.855235 -26.677217 0.485960
0.992245 -141.493576 0.621037
-1.719945 0.556259 -0.237420
-1.741063 0.557223 -0.241062
-1.790079 0.559418 -0.249514
-0.848123 0.569333 -0.281249
0.569839 0.568462 -0.170121
0.720934 0.564207 0.041462
0.858183 0.487054 0.499885
0.993382 -143.197281 0.623064
-9.965015 0.698103 -1.663679
-9.986125 0.698276 -1.667313
-10.035120 0.698676 -1.675746
-10.312078 0.700901 -1.723396
-4.049061 0.710923 -1.894083
0.702043 0.709984 -1.338534
0.856546 0.704931 0.449374
0.996554 0.622726 0.638557
-51.659996 0.833128 -8.879902
-51.681217 0.833162 -8.883575
-51.730442 0.833240 -8.892061
-52.008724 0.833681 -8.940032
-53.586113 0.836138 -9.211807
-24.025593 0.847186 -10.242764
0.838787 0.846461 -7.329805
0.994819 0.841902 0.602177
-272.624268 0.970009 -47.131351
-272.645416 0.970015 -47.135014
-272.694672 0.970030 -47.143543
-272.972961 0.970114 -47.191551
-274.550354 0.970589 -47.463593
-283.490845 0.973226 -49.005833
-145.867737 0.985072 -55.129066
0.975803 0.984291 -39.578331
0.041909 0.054910 0.203032
0.043654 0.055609 0.199649
0.257783 0.037791 0.201137
0.453538 -0.146128 0.211024
0.583813 -0.931920 0.252934
0.718993 -5.055535 0.351139
0.853895 -26.332180 0.486589
0.991992 -141.098785 0.620982
0.023184 0.158667 0.204855
0.195048 0.208377 0.202430
0.301231 0.204039 0.204417
0.460707 0.171220 0.216878
0.585964 -0.950556 0.255306
0.719413 -5.078365 0.351850
0.853978 -26.356596 0.486710
0.992008 -141.123978 0.621010
-0.024955 0.277751 0.204310
0.133092 0.300717 0.199728
0.293874 0.299937 0.201937
0.458864 0.295565 0.215085
0.588132 0.239713 0.264852
0.720375 -5.121270 0.353509
0.854169 -26.412550 0.486992
0.992044 -141.182053 0.621073
-0.317750 0.426585 0.092747
-0.339974 0.431106 0.094642
0.204499 0.438946 0.106019
0.447552 0.437569 0.202285
0.586676 0.428446 0.262170
0.722891 0.346444 0.368139
0.855241 -26.695631 0.488576
0.992246 -141.508347 0.621433
-1.762989 0.558204 -0.244053
-1.784115 0.559146 -0.247657
-1.833150 0.561291 -0.256012
-0.377143 0.570847 -0.282418
0.572850 0.569991 -0.169376
0.721036 0.564597 0.365201
0.858184 0.487265 0.502226
0.993383 -143.211868 0.623450
-10.008056 0.698454 -1.670465
-10.029166 0.698626 -1.674091
-10.078165 0.699024 -1.682509
-10.355138 0.701241 -1.730078
-3.578516 0.711196 -1.895546
0.702657 0.710260 -1.338539
0.856570 0.705017 0.485804
0.996554 0.622763 0.638928
-51.702713 0.833196 -8.886886
-51.723927 0.833229 -8.890526
-51.773155 0.833308 -8.899014
-52.051449 0.833748 -8.946982
-53.628841 0.836203 -9.218679
-23.555202 0.847238 -10.244555
0.838904 0.846513 -7.330517
0.994824 0.841918 0.609031
-272.666962 0.970022 -47.138416
-272.688141 0.970028 -47.142075
-272.737366 0.970043 -47.150604
-273.015686 0.970127 -47.198608
-274.592987 0.970601 -47.470814
-283.533569 0.973239 -49.012886
-145.398529 0.985081 -55.131199
0.975825 0.984301 -39.579403
-0.028215 0.014200 0.300401
0.085274 0.009273 0.299368
0.272911 -0.007731 0.299752
0.454949 -0.187360 0.302400
0.584152 -0.970398 0.315083
0.719069 -5.098141 0.377520
0.853911 -26.375744 0.492461
0.991995 -141.133362 0.621897
-0.057493 0.174590 0.301216
0.188909 0.219799 0.300423
0.299919 0.216277 0.300938
0.460385 0.191719 0.304508
0.586290 -0.984706 0.316196
0.719488 -5.120554 0.377960
0.853993 -26.400127 0.492575
0.992011 -141.158386 0.621925
-0.105107 0.280277 0.301659
-0.029105 0.303354 0.300094
0.292502 0.302576 0.300768
0.458528 0.298409 0.304350
0.588110 0.247625 0.320763
0.720449 -5.161545 0.378988
0.854185 -26.456032 0.492841
0.992047 -141.216660 0.621988
-0.434613 0.427455 0.305079
-0.454071 0.431926 0.303441
0.200997 0.439784 0.300884
0.447182 0.438372 0.304400
0.586660 0.429433 0.320219
0.722894 0.349422 0.388681
0.855257 -26.738241 0.494335
0.992249 -141.542770 0.622344
-1.963638 0.562211 0.198698
-1.985945 0.563104 0.199832
-2.037719 0.565141 0.202405
0.307490 0.573907 0.231151
0.577716 0.572561 0.309227
0.721039 0.564768 0.384562
0.858186 0.487741 0.507257
0.993386 -143.245682 0.624342
-10.108168 0.699263 -1.685213
-10.129282 0.699433 -1.688816
-10.178289 0.699828 -1.697186
-10.455327 0.702023 -1.744449
-2.486845 0.711828 -1.897025
0.704062 0.710898 -1.333833
0.856579 0.705070 0.499138
0.996554 0.622850 0.639784
-51.801891 0.833353 -8.902946
-51.823105 0.833386 -8.906586
-51.872341 0.833465 -8.915073
-52.150642 0.833904 -8.963006
-53.728062 0.836354 -9.234572
-22.463148 0.847359 -10.248557
0.839175 0.846635 -7.331763
0.994834 0.841954 0.623301
-272.766022 0.970052 -47.154896
-272.787292 0.970058 -47.158417
-272.836517 0.970073 -47.166939
-273.114807 0.970157 -47.214939
-274.692108 0.970631 -47.487129
-283.632721 0.973267 -49.029186
-144.309280 0.985104 -55.135735
0.975876 0.984324 -39.581985
-0.583978 0.147622 0.444995
0.164955 0.206715 0.444935
0.296760 0.202192 0.445050
0.459376 0.166492 0.445802
0.585983 -1.247476 0.448314
0.719452 -5.371040 0.462374
0.853993 -26.599298 0.517316
0.992010 -141.328339 0.626892
-0.607036 0.231663 0.444976
-0.094152 0.263354 0.444835
0.293414 0.261333 0.444985
0.458579 0.249298 0.445744
0.587820 -0.986791 0.448642
0.719868 -5.391354 0.462531
0.854075 -26.623512 0.517400
0.992026 -141.353363 0.626918
-0.651606 0.298506 0.444898
-0.660888 0.317952 0.444612
0.283585 0.319466 0.444798
0.456660 0.314071 0.445556
0.587880 0.282298 0.449290
0.720823 -5.419779 0.462901
0.854266 -26.678907 0.517596
0.992062 -141.411438 0.626978
-0.977474 0.431561 0.444732
-0.996899 0.435821 0.444443
-0.422901 0.443980 0.443940
0.445026 0.442702 0.444772
0.586428 0.434416 0.448513
0.722872 0.362675 0.466447
0.855337 -26.955147 0.518695
0.992264 -141.737396 0.627316
-2.572560 0.563020 0.442332
-2.592167 0.563904 0.442036
-2.637673 0.565919 0.441345
0.302353 0.574720 0.438651
0.577473 0.573343 0.442952
0.721022 0.565626 0.462606
0.858189 0.490163 0.528515
0.993401 -143.436401 0.629212
-11.228662 0.703357 0.337861
-11.250967 0.703518 0.338072
-11.302706 0.703892 0.338557
-11.595230 0.705973 0.341249
0.449804 0.714960 0.370948
0.709626 0.713524 0.441434
0.856588 0.705257 0.523522
0.996555 0.623327 0.643999
-52.363201 0.834236 -8.990458
-52.384415 0.834269 -8.994094
-52.433655 0.834346 -9.002542
-52.711998 0.834781 -9.050267
-54.289700 0.837206 -9.320551
-16.288597 0.848037 -10.264359
0.840690 0.847319 -7.321428
0.994842 0.842009 0.636810
-273.326355 0.970220 -47.247238
-273.347504 0.970227 -47.250908
-273.396790 0.970242 -47.259434
-273.675079 0.970325 -47.307430
-275.252411 0.970798 -47.579437
-284.193115 0.973430 -49.120823
-138.146881 0.985232 -55.161556
0.976167 0.984453 -39.595329
-3.314263 0.321320 0.579190
-3.296618 0.336301 0.579134
0.217847 0.346251 0.579199
0.448063 0.341859 0.579328
0.586852 0.313220 0.579978
0.721353 -6.655143 0.582343
0.854410 -27.915525 0.594860
0.992096 -142.512039 0.652292
-3.340018 0.338160 0.579195
-3.333626 0.350626 0.579138
0.058753 0.360583 0.579190
0.447136 0.357101 0.579323
0.586739 0.331522 0.579971
0.721740 -6.565936 0.582397
0.854492 -27.938538 0.594897
0.992112 -142.537064 0.652311
-3.404490 0.369973 0.579210
-3.411636 0.378671 0.579153
-0.819068 0.388300 0.579161
0.444950 0.385558 0.579316
0.586482 0.367290 0.579963
0.722500 -5.635962 0.582597
0.854682 -27.990608 0.594984
0.992148 -142.594879 0.652355
-3.732525 0.450826 0.579275
-3.751275 0.454220 0.579218
-3.763606 0.461557 0.579085
0.430765 0.463338 0.579262
0.585009 0.457193 0.579916
0.722566 0.409658 0.583332
0.855747 -28.222363 0.595479
0.992350 -142.918655 0.652604
-5.340478 0.567031 0.579471
-5.359879 0.567872 0.579413
-5.404906 0.569790 0.579280
-2.773151 0.579004 0.578677
0.575823 0.577656 0.579440
0.720695 0.569811 0.582893
0.858170 0.501106 0.599651
0.993485 -144.591751 0.654001
-14.461522 0.704180 0.579720
-14.481072 0.704340 0.579664
-14.526468 0.704710 0.579532
-14.783076 0.706769 0.578784
0.439182 0.715801 0.575796
0.709347 0.714339 0.579709
0.856579 0.706137 0.597742
0.996558 0.625954 0.664933
-58.340214 0.838741 0.464858
-58.362629 0.838772 0.464904
-58.414612 0.838845 0.465008
-58.708588 0.839255 0.465597
-60.374725 0.841543 0.468857
0.585088 0.851437 0.502519
0.846758 0.850165 0.577734
0.994850 0.842201 0.660490
-276.504761 0.971170 -47.757748
-276.525909 0.971176 -47.761406
-276.575195 0.971191 -47.769764
-276.853516 0.971273 -47.817722
-278.431122 0.971741 -48.088692
-287.373138 0.974343 -49.624214
-103.160576 0.985953 -55.276505
0.977794 0.985180 -39.593788
-18.102072 0.471749 0.717164
-18.103994 0.474377 0.717154
-18.063246 0.480125 0.717130
0.322529 0.491625 0.717185
0.578297 0.487834 0.717322
0.721157 0.462895 0.718042
0.856571 -35.091709 0.720791
0.992538 -149.915634 0.734151
-18.127928 0.474645 0.717164
-18.130816 0.477182 0.717154
-18.095638 0.482744 0.717130
0.319026 0.494184 0.717183
0.578168 0.490333 0.717320
0.721131 0.466696 0.718041
0.856648 -35.040485 0.720800
0.992553 -149.939529 0.734158
-18.191444 0.481421 0.717165
-18.196335 0.483756 0.717154
-18.172434 0.488902 0.717130
-0.051031 0.500144 0.717176
0.577870 0.496232 0.717316
0.721072 0.474570 0.718037
0.856826 -34.877850 0.720821
0.992589 -149.994949 0.734174
-18.496544 0.508333 0.717161
-18.508892 0.510041 0.717150
-18.523285 0.513863 0.717126
-5.019785 0.525153 0.717126
0.576141 0.523060 0.717292
0.720733 0.507018 0.718011
0.857718 -30.966793 0.720996
0.992790 -150.302902 0.734266
-20.128073 0.585671 0.717138
-20.147181 0.586345 0.717128
-20.191095 0.587888 0.717103
-20.326300 0.596080 0.716964
0.564599 0.598586 0.717142
0.718742 0.592848 0.717861
0.857909 0.545922 0.721674
0.993918 -151.771179 0.734784
-29.215992 0.708281 0.717039
-29.235415 0.708433 0.717029
-29.280483 0.708784 0.717004
-29.535303 0.710742 0.716863
-16.117428 0.720239 0.716214
0.707492 0.718814 0.717023
0.856312 0.710533 0.720849
0.996537 0.639490 0.738976
-75.453575 0.839449 0.716885
-75.473213 0.839480 0.716874
-75.518799 0.839552 0.716849
-75.776482 0.839959 0.716706
-77.237000 0.842226 0.715893
0.578448 0.852198 0.712539
0.846501 0.850909 0.716296
0.994838 0.843110 0.735555
-309.009186 0.976031 0.594874
-309.031586 0.976037 0.594883
-309.083618 0.976051 0.594905
-309.377502 0.976129 0.595026
-311.043549 0.976568 0.595710
-320.486542 0.979013 0.599486
0.718626 0.989584 0.636561
0.984339 0.988226 0.715602
-94.693237 0.610168 0.852995
-94.702499 0.610666 0.852993
-94.721237 0.611808 0.852989
-94.698250 0.617959 0.852962
0.450642 0.631599 0.853002
0.710006 0.627136 0.853124
0.856707 0.600160 0.853786
0.994795 -187.340942 0.856250
-94.717628 0.610691 0.852996
-94.727043 0.611185 0.852994
-94.745987 0.612321 0.852989
-94.726379 0.618437 0.852962
0.450059 0.632069 0.853002
0.709981 0.627677 0.853124
0.856703 0.600809 0.853786
0.994809 -187.308075 0.856252
-94.773209 0.611870 0.852996
-94.782898 0.612357 0.852994
-94.802498 0.613478 0.852989
-94.790474 0.619517 0.852962
0.448642 0.633135 0.853001
0.709923 0.628902 0.853124
0.856694 0.602270 0.853785
0.994843 -187.226822 0.856256
-95.068764 0.617880 0.852998
-95.079689 0.618334 0.852996
-95.102608 0.619379 0.852991
-95.128990 0.625031 0.852964
-0.859021 0.638571 0.852995
0.709591 0.635081 0.853123
0.856643 0.609618 0.853782
0.995033 -186.603897 0.856280
-96.627533 0.644284 0.853007
-96.642708 0.644615 0.853005
-96.676895 0.645376 0.853000
-96.828468 0.649547 0.852973
-29.041111 0.662725 0.852952
0.707695 0.660283 0.853107
0.856361 0.644658 0.853772
0.996007 -169.105011 0.856470
-105.804909 0.725127 0.853074
-105.824165 0.725252 0.853072
-105.868843 0.725540 0.853067
-106.120308 0.727152 0.853040
-107.167969 0.735720 0.852886
0.696943 0.738775 0.853039
0.854735 0.733336 0.853705
0.996254 0.685757 0.857263
-151.834518 0.842734 0.853311
-151.854034 0.842764 0.853309
-151.899368 0.842833 0.853304
-152.155548 0.843224 0.853277
-153.607620 0.845403 0.853122
-92.595490 0.856057 0.852376
0.844710 0.854872 0.853158
0.994548 0.847466 0.856767
-400.278229 0.976772 0.854287
-400.297852 0.976778 0.854285
-400.343414 0.976791 0.854280
-400.600983 0.976868 0.854253
-402.061218 0.977303 0.854100
-410.337189 0.979724 0.853229
0.712336 0.990387 0.849556
0.984057 0.989011 0.853346
-509.605103 0.749438 0.991468
-509.617126 0.749530 0.991468
-509.644867 0.749743 0.991467
-509.792053 0.750937 0.991462
-510.108337 0.757379 0.991433
0.588918 0.772396 0.991465
0.847268 0.768123 0.991590
0.994964 0.740769 0.992269
-509.629059 0.749534 0.991468
-509.641083 0.749626 0.991468
-509.668854 0.749839 0.991467
-509.816376 0.751031 0.991462
-510.134949 0.757466 0.991433
0.588737 0.772479 0.991465
0.847264 0.768212 0.991590
0.994964 0.740877 0.992269
-509.684692 0.749757 0.991468
-509.696777 0.749848 0.991468
-509.724518 0.750061 0.991467
-509.872437 0.751250 0.991462
-510.196442 0.757669 0.991433
0.588337 0.772673 0.991465
0.847254 0.768418 0.991590
0.994962 0.741128 0.992269
-509.998322 0.751005 0.991469
-510.010712 0.751095 0.991468
-510.039246 0.751304 0.991467
-510.189392 0.752477 0.991462
-510.543427 0.758805 0.991434
0.586014 0.773757 0.991465
0.847199 0.769568 0.991590
0.994953 0.742515 0.992269
-511.770325 0.757738 0.991471
-511.783508 0.757821 0.991471
-511.813782 0.758014 0.991470
-511.977264 0.759095 0.991465
-512.484009 0.764957 0.991436
-5.931689 0.779621 0.991459
0.846883 0.775758 0.991588
0.994899 0.749627 0.992265
-520.509583 0.784971 0.991481
-520.526123 0.785031 0.991480
-520.564087 0.785170 0.991479
-520.774902 0.785954 0.991474
-521.799927 0.790257 0.991446
-165.663010 0.804365 0.991414
0.845046 0.802165 0.991573
0.994600 0.786092 0.992255
-564.500488 0.858969 0.991513
-564.519592 0.858993 0.991513
-564.564514 0.859050 0.991512
-564.817749 0.859371 0.991507
-566.249329 0.861167 0.991478
-572.886597 0.870652 0.991315
0.833609 0.874282 0.991458
0.992847 0.868488 0.992143
-811.931824 0.980220 0.991696
-811.951416 0.980226 0.991696
-811.996765 0.980239 0.991695
-812.252991 0.980313 0.991690
-813.704956 0.980730 0.991661
-821.935364 0.983054 0.991498
-528.227051 0.994457 0.990691
0.982122 0.993196 0.991493
