tests/test_open_vp_cal/resources/Sample_Project8_ACES_CCT_LUT/export/calibration/Wall1_REDWideGamutRGB_ITU-R BT.2020_ST 2084_EOTF_CS_ACES_CCT_IN_OUT.cube
LUT_3D_SIZE 64
-0.936074 -1.054755 -1.037154
-0.672115 -1.059578 -1.034645
-0.408155 -1.064400 -1.032136
-0.199338 -0.922446 -0.900812
-0.097316 -0.549703 -0.536322
-0.088226 -0.516453 -0.503787
-0.080395 -0.487812 -0.475761
-0.072968 -0.460645 -0.449178
-0.065878 -0.434713 -0.423804
-0.058946 -0.409360 -0.398995
-0.052134 -0.384442 -0.374613
-0.044550 -0.356703 -0.347471
-0.035628 -0.324071 -0.315540
-0.024465 -0.283242 -0.275588
-0.010190 -0.231026 -0.224494
0.007932 -0.164744 -0.159637
0.028862 -0.088191 -0.084729
0.050807 -0.007924 -0.006187
0.084652 0.072182 0.072551
0.200729 0.064096 0.068588
0.267178 0.053163 0.063230
0.303850 0.042088 0.057801
0.337053 0.026783 0.050301
0.364052 0.008886 0.041532
0.384731 -0.009389 0.032583
0.406787 -0.034667 0.020225
0.428069 -0.066400 0.004781
0.447569 -0.103643 -0.013147
0.463050 -0.140214 -0.030341
0.478231 -0.183510 -0.049773
0.495421 -0.243463 -0.074124
0.509807 -0.304799 -0.093571
0.523834 -0.377020 -0.105927
0.539929 -0.478840 -0.102630
0.555380 -0.601269 -0.063183
0.570014 -0.745601 0.026649
0.583628 -0.910463 0.171615
0.596974 -1.088621 0.211615
0.611522 -1.313764 0.229028
0.627297 -1.606857 0.246370
0.640718 -1.904929 0.261342
0.655215 -2.286036 0.276645
0.672520 -2.836931 0.293609
0.688242 -3.449282 0.309960
0.702138 -4.098396 0.325317
0.718963 -5.042285 0.341194
0.733535 -6.031490 0.354757
0.748998 -7.292542 0.370291
0.765936 -8.974645 0.387828
0.782520 -10.995541 0.405767
0.796652 -13.075658 0.422071
0.810545 -15.500991 0.437905
0.824737 -18.434254 0.452548
0.839198 -21.994259 0.468012
0.853888 -26.313343 0.483918
0.868773 -31.548016 0.499491
0.883821 -37.884460 0.513944
0.899007 -45.565956 0.528457
0.914310 -54.895741 0.544330
0.929709 -66.189011 0.558973
0.945189 -79.883850 0.573861
0.960737 -96.509987 0.589764
0.976341 -116.666260 0.605505
0.991991 -141.083969 0.620584
-0.973881 -0.819372 -1.039542
-0.709922 -0.824195 -1.037033
-0.445963 -0.829017 -1.034524
-0.211017 -0.847561 -0.896098
-0.091827 -0.529623 -0.516674
-0.071343 -0.454701 -0.443362
-0.063446 -0.425819 -0.415101
-0.055955 -0.398419 -0.388290
-0.048826 -0.372344 -0.362775
-0.041871 -0.346904 -0.337882
-0.035032 -0.321892 -0.313407
-0.027416 -0.294033 -0.286147
-0.018478 -0.261342 -0.254159
-0.007372 -0.220721 -0.214411
0.006847 -0.168713 -0.163520
0.024942 -0.102529 -0.098758
0.045979 -0.025584 -0.023467
0.068112 0.055371 0.055748
0.127157 0.069565 0.071268
0.221318 0.061594 0.067362
0.277238 0.050598 0.061972
0.310444 0.039518 0.056542
0.341443 0.024257 0.049063
0.367307 0.006305 0.040267
0.387278 -0.011974 0.031317
0.408715 -0.037214 0.018980
0.429571 -0.068957 0.003534
0.448761 -0.106203 -0.014391
0.464060 -0.142824 -0.031600
0.479062 -0.186075 -0.051004
0.496097 -0.246008 -0.075354
0.510383 -0.307357 -0.094864
0.524317 -0.379512 -0.107397
0.540325 -0.481234 -0.104602
0.555711 -0.603544 -0.066031
0.570295 -0.747753 0.022714
0.583868 -0.912542 0.167753
0.597181 -1.091346 0.211976
0.611694 -1.316449 0.229333
0.627440 -1.609541 0.246631
0.640840 -1.907636 0.261565
0.655317 -2.288727 0.276836
0.672602 -2.839564 0.293763
0.688310 -3.451922 0.310079
0.702196 -4.101056 0.325422
0.719010 -5.044909 0.341290
0.733574 -6.034167 0.354838
0.749030 -7.295171 0.370351
0.765962 -8.977225 0.387873
0.782542 -10.998132 0.405801
0.796670 -13.078270 0.422098
0.810560 -15.503661 0.437929
0.824750 -18.436958 0.452569
0.839209 -21.996965 0.468028
0.853898 -26.316076 0.483932
0.868781 -31.550755 0.499503
0.883827 -37.887165 0.513955
0.899012 -45.568733 0.528466
0.914314 -54.898567 0.544337
0.929713 -66.191818 0.558980
0.945192 -79.886589 0.573866
0.960740 -96.512688 0.589768
0.976343 -116.668877 0.605508
0.991993 -141.086777 0.620588
-1.011689 -0.583989 -1.041930
-0.747729 -0.588812 -1.039421
-0.483770 -0.593634 -1.036912
-0.250979 -0.613197 -0.888391
-0.090103 -0.523277 -0.510490
-0.054470 -0.392987 -0.382976
-0.046508 -0.363865 -0.354479
-0.038953 -0.336230 -0.327438
-0.031778 -0.309988 -0.301759
-0.024799 -0.284463 -0.276783
-0.017936 -0.259359 -0.252218
-0.010286 -0.231379 -0.224839
-0.001323 -0.198594 -0.192759
0.009726 -0.158181 -0.153215
0.023888 -0.106384 -0.102531
0.041946 -0.040333 -0.037900
0.063087 0.036994 0.037766
0.104206 0.070978 0.071961
0.168572 0.066944 0.069984
0.237797 0.059088 0.066133
0.286198 0.048034 0.060716
0.316551 0.036948 0.055283
0.345611 0.021731 0.047825
0.370437 0.003726 0.039003
0.389750 -0.014558 0.030051
0.410600 -0.039757 0.017734
0.431045 -0.071505 0.002286
0.449935 -0.108746 -0.015633
0.465059 -0.145412 -0.032859
0.479885 -0.188612 -0.052233
0.496767 -0.248513 -0.076582
0.510956 -0.309869 -0.096155
0.524796 -0.381956 -0.108861
0.540720 -0.483573 -0.106558
0.556041 -0.605759 -0.068853
0.570575 -0.749847 0.018814
0.584108 -0.914547 0.163575
0.597388 -1.094023 0.212334
0.611866 -1.319090 0.229637
0.627582 -1.612182 0.246892
0.640962 -1.910315 0.261788
0.655418 -2.291391 0.277026
0.672684 -2.842175 0.293917
0.688379 -3.454541 0.310199
0.702253 -4.103696 0.325526
0.719056 -5.047517 0.341385
0.733614 -6.036825 0.354919
0.749063 -7.297778 0.370411
0.765988 -8.979809 0.387919
0.782564 -11.000706 0.405836
0.796689 -13.080903 0.422125
0.810576 -15.506314 0.437954
0.824763 -18.439636 0.452591
0.839220 -21.999641 0.468044
0.853907 -26.318815 0.483946
0.868788 -31.553493 0.499515
0.883833 -37.889927 0.513967
0.899017 -45.571518 0.528475
0.914319 -54.901299 0.544344
0.929716 -66.194504 0.558986
0.945195 -79.889458 0.573871
0.960742 -96.515533 0.589772
0.976345 -116.671684 0.605511
0.991995 -141.089523 0.620591
-1.053660 -0.355512 -0.980640
-0.802216 -0.361317 -0.963673
-0.541415 -0.367633 -0.946370
-0.290944 -0.378835 -0.880673
-0.106599 -0.421309 -0.505208
-0.037610 -0.331305 -0.322626
-0.029581 -0.301948 -0.293895
-0.021960 -0.274078 -0.266622
-0.014734 -0.247646 -0.240757
-0.007732 -0.222035 -0.215697
-0.000844 -0.196842 -0.191045
0.006839 -0.168742 -0.163548
0.015838 -0.135826 -0.131340
0.026830 -0.095621 -0.091999
0.040932 -0.044041 -0.041527
0.058945 0.021842 0.022940
0.091139 0.071783 0.072355
0.147487 0.068313 0.070655
0.198602 0.064321 0.068698
0.251540 0.056578 0.064903
0.294276 0.045470 0.059459
0.322237 0.034378 0.054023
0.349580 0.019206 0.046587
0.373452 0.001150 0.037740
0.392150 -0.017137 0.028785
0.412442 -0.042290 0.016489
0.432493 -0.074033 0.001040
0.451091 -0.111254 -0.016874
0.466044 -0.147955 -0.034116
0.480699 -0.191093 -0.053461
0.497431 -0.250946 -0.077809
0.511524 -0.312303 -0.097443
0.525272 -0.384320 -0.110320
0.541113 -0.485828 -0.108498
0.556369 -0.607890 -0.071646
0.570853 -0.751860 0.014948
0.584346 -0.916464 0.159061
0.597594 -1.096641 0.212692
0.612037 -1.321681 0.229940
0.627725 -1.614780 0.247151
0.641084 -1.912955 0.262011
0.655520 -2.294027 0.277217
0.672766 -2.844755 0.294070
0.688447 -3.457134 0.310318
0.702311 -4.106318 0.325630
0.719103 -5.050111 0.341480
0.733654 -6.039473 0.355000
0.749095 -7.300386 0.370472
0.766015 -8.982375 0.387964
0.782586 -11.003281 0.405871
0.796707 -13.083493 0.422152
0.810591 -15.508988 0.437979
0.824776 -18.442339 0.452613
0.839231 -22.002348 0.468061
0.853916 -26.321520 0.483960
0.868796 -31.556187 0.499526
0.883840 -37.892689 0.513978
0.899023 -45.574219 0.528483
0.914323 -54.904034 0.544352
0.929720 -66.197296 0.558993
0.945198 -79.892197 0.573876
0.960745 -96.518219 0.589776
0.976348 -116.674507 0.605515
0.991996 -141.092316 0.620594
-0.626259 -0.189333 -0.574541
-0.609589 -0.183082 -0.559106
-0.592718 -0.176840 -0.543670
-0.404836 -0.179434 -0.526641
-0.146572 -0.186950 -0.497453
-0.030342 -0.215627 -0.261305
-0.015565 -0.223712 -0.233042
-0.005024 -0.211708 -0.205838
0.002305 -0.185304 -0.179768
0.009332 -0.159619 -0.154624
0.016244 -0.134341 -0.129888
0.023959 -0.106121 -0.102274
0.032999 -0.073059 -0.069922
0.043940 -0.033041 -0.030764
0.057981 0.018318 0.019491
0.080498 0.072438 0.072676
0.133939 0.069147 0.071063
0.184765 0.065649 0.069349
0.220581 0.061695 0.067411
0.263330 0.054065 0.063671
0.301629 0.042909 0.058203
0.327558 0.031808 0.052762
0.353368 0.016684 0.045348
0.376360 -0.001414 0.036476
0.394482 -0.019696 0.027519
0.414244 -0.044785 0.015244
0.433916 -0.076498 -0.000205
0.452231 -0.113666 -0.018113
0.467018 -0.150387 -0.035371
0.481504 -0.193453 -0.054688
0.498090 -0.253236 -0.079033
0.512087 -0.314595 -0.098727
0.525746 -0.386554 -0.111770
0.541503 -0.487950 -0.110421
0.556696 -0.609896 -0.074412
0.571131 -0.753764 0.011116
0.584583 -0.918285 0.154297
0.597800 -1.099180 0.213047
0.612208 -1.324211 0.230241
0.627867 -1.617324 0.247410
0.641205 -1.915555 0.262233
0.655621 -2.296631 0.277407
0.672848 -2.847308 0.294224
0.688515 -3.459705 0.310437
0.702368 -4.108924 0.325733
0.719150 -5.052687 0.341575
0.733693 -6.042113 0.355081
0.749128 -7.302981 0.370532
0.766041 -8.984931 0.388010
0.782607 -11.005837 0.405905
0.796726 -13.086108 0.422180
0.810607 -15.511639 0.438003
0.824789 -18.445019 0.452635
0.839242 -22.005060 0.468077
0.853925 -26.324217 0.483974
0.868804 -31.558928 0.499538
0.883846 -37.895458 0.513989
0.899028 -45.576996 0.528491
0.914328 -54.906857 0.544358
0.929724 -66.200096 0.558999
0.945201 -79.894928 0.573881
0.960747 -96.521065 0.589780
0.976350 -116.677307 0.605518
0.991998 -141.095108 0.620597
-0.194743 -0.027483 -0.174945
-0.176252 -0.020547 -0.157822
-0.158056 -0.013722 -0.140972
-0.140038 -0.006964 -0.124287
-0.122198 -0.000273 -0.107767
-0.064841 0.001770 -0.096479
-0.042519 -0.002400 -0.102752
-0.021149 -0.006640 -0.109289
-0.000711 -0.010951 -0.116091
0.012420 -0.018465 -0.092109
0.025218 -0.026123 -0.067890
0.039544 -0.034885 -0.040855
0.050154 -0.010309 -0.008521
0.061054 0.029559 0.030490
0.078234 0.072577 0.072745
0.123032 0.069819 0.071393
0.174333 0.066512 0.069772
0.210504 0.062986 0.068044
0.237930 0.059066 0.066122
0.273656 0.051550 0.062438
0.308377 0.040357 0.056948
0.332557 0.029260 0.051502
0.356989 0.014211 0.044111
0.379167 -0.003887 0.035215
0.396750 -0.022131 0.026256
0.416007 -0.047103 0.014003
0.435313 -0.078716 -0.001446
0.453353 -0.115771 -0.019344
0.467979 -0.152511 -0.036619
0.482301 -0.195522 -0.055908
0.498743 -0.255221 -0.080251
0.512647 -0.316621 -0.100006
0.526216 -0.388562 -0.113212
0.541892 -0.489863 -0.112326
0.557022 -0.611716 -0.077147
0.571408 -0.755513 0.007318
0.584820 -0.919985 0.149475
0.598005 -1.101626 0.213403
0.612378 -1.326664 0.230542
0.628009 -1.619802 0.247668
0.641326 -1.918110 0.262455
0.655722 -2.299198 0.277597
0.672929 -2.849826 0.294378
0.688583 -3.462248 0.310557
0.702426 -4.111506 0.325837
0.719196 -5.055241 0.341670
0.733733 -6.044732 0.355161
0.749160 -7.305566 0.370592
0.766067 -8.987472 0.388055
0.782629 -11.008376 0.405939
0.796744 -13.088700 0.422207
0.810622 -15.514263 0.438028
0.824802 -18.447697 0.452657
0.839253 -22.007736 0.468093
0.853934 -26.326958 0.483988
0.868811 -31.561670 0.499550
0.883853 -37.898220 0.514001
0.899033 -45.579777 0.528500
0.914332 -54.909588 0.544366
0.929727 -66.202881 0.559006
0.945204 -79.897697 0.573886
0.960750 -96.523880 0.589784
0.976352 -116.680122 0.605522
0.992000 -141.097885 0.620600
-0.126768 -0.001987 -0.111999
-0.100835 0.007740 -0.087984
-0.074904 0.017466 -0.063971
-0.048975 0.027191 -0.039959
-0.023048 0.036916 -0.015950
0.000879 0.045890 0.006207
0.002267 0.046411 0.007492
0.003551 0.046892 0.008681
0.004733 0.047336 0.009775
0.005832 0.047747 0.010792
0.007222 0.048129 0.011778
0.025760 0.047669 0.013021
0.049315 0.047021 0.014462
0.067538 0.053273 0.053695
0.096324 0.071463 0.072199
0.143408 0.068566 0.070778
0.191176 0.065090 0.069061
0.223517 0.061436 0.067214
0.248696 0.057602 0.065181
0.281484 0.051359 0.061420
0.314289 0.042131 0.055817
0.337198 0.029685 0.050301
0.360424 0.014047 0.042916
0.381858 -0.004350 0.033992
0.398942 -0.022984 0.025022
0.417722 -0.047965 0.012789
0.436678 -0.079527 -0.002659
0.454454 -0.116567 -0.020551
0.468925 -0.153598 -0.037848
0.483088 -0.196777 -0.057113
0.499388 -0.256496 -0.081456
0.513201 -0.318098 -0.101274
0.526683 -0.390156 -0.114642
0.542278 -0.491429 -0.114213
0.557345 -0.613256 -0.079854
0.571683 -0.757039 0.003556
0.585056 -0.921522 0.144687
0.598209 -1.103949 0.213757
0.612548 -1.329024 0.230842
0.628151 -1.622208 0.247926
0.641447 -1.920610 0.262676
0.655823 -2.301725 0.277786
0.673011 -2.852312 0.294532
0.688651 -3.464765 0.310676
0.702483 -4.114069 0.325939
0.719243 -5.057785 0.341764
0.733772 -6.047345 0.355242
0.749192 -7.308139 0.370652
0.766093 -8.990012 0.388100
0.782651 -11.010917 0.405974
0.796762 -13.091292 0.422234
0.810638 -15.516917 0.438053
0.824815 -18.450373 0.452678
0.839264 -22.010443 0.468110
0.853943 -26.329655 0.484002
0.868819 -31.564409 0.499561
0.883859 -37.900990 0.514012
0.899039 -45.582546 0.528509
0.914336 -54.912323 0.544373
0.929731 -66.205688 0.559013
0.945207 -79.900436 0.573891
0.960752 -96.526588 0.589788
0.976354 -116.682922 0.605525
0.992002 -141.100677 0.620603
-0.090941 0.011451 -0.078822
-0.064921 0.021210 -0.054726
-0.038903 0.030969 -0.030633
-0.012886 0.040727 -0.006540
0.013129 0.050485 0.017551
0.038826 0.060123 0.041346
0.042568 0.061527 0.044812
0.043957 0.062048 0.046098
0.045244 0.062530 0.047290
0.046440 0.062979 0.048398
0.047598 0.063413 0.049470
0.048875 0.063892 0.050652
0.050342 0.064443 0.052011
0.065504 0.064384 0.053767
0.096085 0.071479 0.072206
0.143020 0.068673 0.070791
0.191005 0.065801 0.069079
0.223502 0.063488 0.067242
0.248463 0.061510 0.065255
0.280802 0.059217 0.061618
0.314006 0.057109 0.056076
0.337511 0.054911 0.050557
0.361167 0.052387 0.043168
0.383022 0.049318 0.034177
0.400444 0.037845 0.024985
0.419181 -0.018100 0.012149
0.437936 -0.065350 -0.003593
0.455500 -0.109001 -0.021601
0.469842 -0.150076 -0.038991
0.483858 -0.195315 -0.058268
0.500023 -0.255878 -0.082625
0.513749 -0.318352 -0.102517
0.527146 -0.390951 -0.116053
0.542661 -0.492400 -0.116074
0.557667 -0.614353 -0.082527
0.571957 -0.758248 -0.000169
0.585291 -0.922836 0.139931
0.598413 -1.106116 0.214111
0.612718 -1.331271 0.231142
0.628292 -1.624524 0.248182
0.641568 -1.923049 0.262897
0.655924 -2.304205 0.277975
0.673092 -2.854753 0.294685
0.688719 -3.467244 0.310795
0.702540 -4.116606 0.326042
0.719289 -5.060298 0.341859
0.733812 -6.049937 0.355323
0.749225 -7.310701 0.370712
0.766120 -8.992539 0.388145
0.782672 -11.013457 0.406008
0.796781 -13.093884 0.422261
0.810653 -15.519543 0.438077
0.824828 -18.453047 0.452700
0.839275 -22.013119 0.468125
0.853953 -26.332355 0.484015
0.868827 -31.567154 0.499573
0.883865 -37.903751 0.514023
0.899044 -45.585258 0.528518
0.914341 -54.915054 0.544380
0.929735 -66.208481 0.559019
0.945210 -79.903290 0.573896
0.960755 -96.529419 0.589792
0.976356 -116.685555 0.605528
0.992003 -141.103470 0.620606
-0.058408 0.023653 -0.048695
-0.032320 0.033438 -0.024537
-0.006235 0.043222 -0.000381
0.019850 0.053006 0.023774
0.045933 0.062789 0.047928
0.072014 0.072571 0.072080
0.072320 0.076410 0.072804
0.072188 0.077199 0.072781
0.072065 0.077933 0.072760
0.071951 0.078617 0.072740
0.071841 0.079277 0.072721
0.071719 0.080008 0.072700
0.071578 0.080852 0.072676
0.071414 0.081831 0.072647
0.093615 0.081987 0.072420
0.140012 0.081438 0.071051
0.188909 0.080768 0.069374
0.222184 0.079906 0.067551
0.247344 0.078797 0.065589
0.279624 0.077666 0.062025
0.313278 0.076516 0.056484
0.336989 0.074858 0.050965
0.360715 0.072912 0.043605
0.382724 0.070452 0.034600
0.400233 0.066940 0.025498
0.419229 0.062659 0.013203
0.438389 0.057200 -0.002346
0.456212 -0.031122 -0.021336
0.470641 -0.118499 -0.039609
0.484584 -0.182353 -0.059208
0.500638 -0.249386 -0.083685
0.514286 -0.315584 -0.103704
0.527603 -0.390088 -0.117428
0.543040 -0.492298 -0.117903
0.557987 -0.614740 -0.085163
0.572230 -0.758985 -0.003854
0.585525 -0.923841 0.135211
0.598616 -1.108081 0.214464
0.612887 -1.333378 0.231440
0.628433 -1.626735 0.248439
0.641689 -1.925415 0.263117
0.656025 -2.306634 0.278164
0.673173 -2.857155 0.294838
0.688787 -3.469696 0.310914
0.702598 -4.119119 0.326145
0.719336 -5.062805 0.341953
0.733851 -6.052511 0.355404
0.749257 -7.313241 0.370772
0.766146 -8.995053 0.388191
0.782694 -11.015982 0.406042
0.796799 -13.096457 0.422289
0.810669 -15.522192 0.438102
0.824841 -18.455721 0.452721
0.839286 -22.015795 0.468142
0.853962 -26.335094 0.484029
0.868834 -31.569845 0.499585
0.883872 -37.906460 0.514034
0.899049 -45.588039 0.528527
0.914345 -54.917870 0.544387
0.929738 -66.211174 0.559026
0.945213 -79.906044 0.573902
0.960757 -96.532112 0.589796
0.976358 -116.688370 0.605532
0.992005 -141.106247 0.620610
-0.028473 0.034881 -0.020974
-0.002340 0.044683 0.003226
0.023792 0.054484 0.027425
0.049924 0.064286 0.051624
0.072624 0.074592 0.072857
0.070286 0.088583 0.072452
0.069264 0.094702 0.072275
0.069126 0.095527 0.072251
0.068997 0.096297 0.072228
0.068877 0.097014 0.072208
0.068762 0.097706 0.072188
0.068633 0.098473 0.072165
0.068485 0.099363 0.072140
0.068314 0.100392 0.072110
0.089533 0.100607 0.072271
0.135665 0.100080 0.071430
0.186076 0.099507 0.069750
0.220496 0.098767 0.067916
0.246015 0.097809 0.065964
0.278339 0.096854 0.062453
0.312490 0.095915 0.056902
0.336432 0.094495 0.051378
0.360240 0.092830 0.044042
0.382408 0.090746 0.035020
0.399991 0.087734 0.025917
0.419013 0.084124 0.013646
0.438226 0.079509 -0.001903
0.456201 0.073194 -0.019919
0.470972 0.031882 -0.037999
0.485128 -0.115030 -0.059132
0.501192 -0.221729 -0.084349
0.514801 -0.304409 -0.104732
0.528050 -0.385498 -0.118729
0.543415 -0.490162 -0.119681
0.558303 -0.613942 -0.087753
0.572501 -0.759008 -0.007495
0.585758 -0.924418 0.130527
0.598818 -1.109781 0.214818
0.613055 -1.335311 0.231739
0.628574 -1.628819 0.248695
0.641809 -1.927698 0.263338
0.656125 -2.309005 0.278352
0.673255 -2.859507 0.294992
0.688855 -3.472105 0.311034
0.702655 -4.121604 0.326248
0.719382 -5.065279 0.342048
0.733891 -6.055067 0.355484
0.749289 -7.315781 0.370832
0.766172 -8.997553 0.388236
0.782716 -11.018502 0.406076
0.796817 -13.099028 0.422316
0.810684 -15.524819 0.438127
0.824854 -18.458376 0.452743
0.839297 -22.018499 0.468158
0.853971 -26.337791 0.484043
0.868842 -31.572588 0.499596
0.883878 -37.909229 0.514046
0.899055 -45.590744 0.528535
0.914350 -54.920609 0.544394
0.929742 -66.213966 0.559033
0.945216 -79.908783 0.573907
0.960760 -96.534958 0.589801
0.976360 -116.691162 0.605535
0.992007 -141.109009 0.620612
-0.000053 0.045541 0.005344
0.026117 0.055356 0.029578
0.052286 0.065172 0.053812
0.072409 0.075877 0.072820
0.070068 0.089888 0.072414
0.067727 0.103900 0.072008
0.066347 0.112157 0.071769
0.066205 0.113010 0.071745
0.066071 0.113808 0.071721
0.065947 0.114553 0.071700
0.065827 0.115267 0.071679
0.065695 0.116061 0.071656
0.065541 0.116983 0.071630
0.065369 0.118046 0.071599
0.085497 0.118349 0.071749
0.131283 0.117780 0.071797
0.183102 0.117266 0.070114
0.218743 0.116599 0.068269
0.244666 0.115726 0.066324
0.277034 0.114869 0.062865
0.311684 0.114076 0.057305
0.335865 0.112855 0.051775
0.359756 0.111455 0.044464
0.382085 0.109737 0.035425
0.399742 0.107195 0.026321
0.418792 0.104145 0.014074
0.438057 0.100294 -0.001475
0.456068 0.095031 -0.019491
0.470906 0.087041 -0.037193
0.485270 0.068288 -0.056852
0.501557 -0.123070 -0.083692
0.515258 -0.267519 -0.105285
0.528479 -0.371695 -0.119861
0.543783 -0.483898 -0.121378
0.558617 -0.611072 -0.090295
0.572771 -0.757920 -0.011104
0.585990 -0.924384 0.125863
0.599021 -1.111131 0.215175
0.613224 -1.337033 0.232040
0.628715 -1.630762 0.248952
0.641930 -1.929898 0.263559
0.656226 -2.311321 0.278541
0.673336 -2.861820 0.295146
0.688923 -3.474485 0.311154
0.702712 -4.124071 0.326350
0.719429 -5.067744 0.342142
0.733930 -6.057626 0.355566
0.749322 -7.318312 0.370893
0.766199 -9.000053 0.388282
0.782737 -11.021025 0.406111
0.796836 -13.101615 0.422343
0.810700 -15.527436 0.438152
0.824868 -18.461067 0.452765
0.839308 -22.021191 0.468175
0.853980 -26.340506 0.484057
0.868850 -31.575296 0.499608
0.883885 -37.912006 0.514057
0.899060 -45.593544 0.528544
0.914354 -54.923359 0.544401
0.929745 -66.216782 0.559039
0.945219 -79.911537 0.573911
0.960762 -96.537666 0.589805
0.976362 -116.693985 0.605538
0.992009 -141.111816 0.620615
0.030627 0.057048 0.033754
0.056834 0.066877 0.058022
0.071999 0.078332 0.072748
0.069654 0.092364 0.072342
0.067310 0.106396 0.071936
0.064965 0.120427 0.071530
0.063177 0.131129 0.071220
0.063029 0.132012 0.071194
0.062891 0.132840 0.071170
0.062762 0.133615 0.071148
0.062638 0.134354 0.071127
0.062501 0.135175 0.071103
0.062342 0.136132 0.071075
0.062176 0.137233 0.071043
0.080858 0.137642 0.071179
0.126395 0.137091 0.071553
0.179529 0.136575 0.070518
0.216666 0.135988 0.068660
0.243105 0.135208 0.066721
0.275525 0.134456 0.063321
0.310744 0.133809 0.057755
0.335210 0.132766 0.052215
0.359197 0.131573 0.044931
0.381711 0.130117 0.035872
0.399455 0.127907 0.026763
0.418535 0.125340 0.014542
0.437861 0.122209 -0.001009
0.455914 0.117930 -0.019026
0.470803 0.111316 -0.036768
0.485179 0.101923 -0.056344
0.501636 0.089087 -0.080967
0.515584 -0.138603 -0.104299
0.528910 -0.325014 -0.120576
0.544185 -0.465413 -0.123097
0.558969 -0.603022 -0.093087
0.573076 -0.754435 -0.015156
0.586255 -0.923225 0.120578
0.599252 -1.112081 0.215587
0.613417 -1.338657 0.232385
0.628876 -1.632758 0.249246
0.642068 -1.932276 0.263812
0.656341 -2.313877 0.278757
0.673429 -2.864393 0.295322
0.689001 -3.477157 0.311291
0.702778 -4.126863 0.326468
0.719483 -5.070540 0.342251
0.733976 -6.060532 0.355659
0.749359 -7.321195 0.370962
0.766229 -9.002910 0.388334
0.782762 -11.023892 0.406151
0.796857 -13.104553 0.422375
0.810718 -15.530442 0.438180
0.824883 -18.464106 0.452790
0.839320 -22.024248 0.468193
0.853991 -26.343622 0.484073
0.868858 -31.578436 0.499621
0.883892 -37.915165 0.514070
0.899066 -45.596695 0.528553
0.914359 -54.926544 0.544409
0.929750 -66.219933 0.559047
0.945223 -79.914726 0.573917
0.960765 -96.540947 0.589809
0.976365 -116.697250 0.605542
0.992010 -141.115036 0.620618
0.065420 0.070098 0.065974
0.071227 0.082953 0.072615
0.068878 0.097009 0.072208
0.066530 0.111064 0.071801
0.064181 0.125119 0.071394
0.061833 0.139173 0.070987
0.059584 0.152630 0.070598
0.059396 0.153754 0.070565
0.059252 0.154618 0.070540
0.059117 0.155428 0.070517
0.058989 0.156191 0.070494
0.058846 0.157030 0.070470
0.058682 0.158000 0.070441
0.058532 0.159099 0.070408
0.075217 0.159619 0.070524
0.120531 0.159149 0.070895
0.174937 0.158613 0.070992
0.214044 0.158131 0.069119
0.241190 0.157473 0.067183
0.273676 0.156846 0.063855
0.309582 0.156357 0.058283
0.334407 0.155508 0.052730
0.358513 0.154538 0.045479
0.381251 0.153372 0.036395
0.399104 0.151522 0.027280
0.418221 0.149401 0.015088
0.437621 0.146822 -0.000467
0.455723 0.143298 -0.018492
0.470676 0.137907 -0.036288
0.485061 0.130369 -0.055887
0.501542 0.120211 -0.080642
0.515646 0.103794 -0.101278
0.529217 -0.156604 -0.119347
0.544604 -0.401347 -0.124381
0.559375 -0.578598 -0.096160
0.573439 -0.744379 -0.019908
0.586572 -0.919260 0.114269
0.599530 -1.111994 0.216093
0.613649 -1.339955 0.232805
0.629071 -1.634763 0.249604
0.642235 -1.934918 0.264119
0.656481 -2.316829 0.279020
0.673542 -2.867394 0.295537
0.689095 -3.480315 0.311458
0.702858 -4.130188 0.326610
0.719547 -5.073874 0.342382
0.734031 -6.064022 0.355772
0.749404 -7.324667 0.371046
0.766265 -9.006352 0.388397
0.782793 -11.027348 0.406198
0.796883 -13.108102 0.422413
0.810739 -15.534103 0.438214
0.824901 -18.467823 0.452820
0.839336 -22.027994 0.468216
0.854003 -26.347374 0.484093
0.868869 -31.582212 0.499638
0.883901 -37.918995 0.514086
0.899073 -45.600510 0.528565
0.914365 -54.930382 0.544419
0.929755 -66.223808 0.559056
0.945227 -79.918671 0.573924
0.960769 -96.544823 0.589815
0.976367 -116.701080 0.605547
0.992013 -141.119003 0.620623
0.069943 0.090637 0.072392
0.067596 0.104684 0.071986
0.065249 0.118730 0.071579
0.062901 0.132777 0.071172
0.060554 0.146825 0.070766
0.058207 0.160689 0.070359
0.055860 0.172889 0.069952
0.055176 0.176130 0.069834
0.055030 0.176805 0.069808
0.054893 0.177434 0.069785
0.054764 0.178023 0.069762
0.054622 0.178670 0.069738
0.054459 0.179421 0.069709
0.054339 0.180276 0.069676
