tests/test_open_vp_cal/resources/Sample_Project3_ROE_Wall1_EOTF_CS/export/calibration/Post_Calibration_OpenVPCal_4aee65.ocio
ocio_profile_version: 2.1

environment:
  {}
search_path: ./
strictparsing: true
luma: [0.2126, 0.7152, 0.0722]
name: studio-config-v1.0.0_aces-v1.3_ocio-v2.1
description: |
  Academy Color Encoding System - Studio Config [COLORSPACES v1.0.0] [ACES v1.3] [OCIO v2.1]
  ------------------------------------------------------------------------------------------

  This "OpenColorIO" config is geared toward studios requiring a config that includes a wide variety of camera colorspaces, displays and looks.

  Generated with "OpenColorIO-Config-ACES" v1.0.0 on the 2022/10/26 at 05:59.

roles:
  aces_interchange: ACES2065-1
  cie_xyz_d65_interchange: CIE-XYZ-D65
  color_picking: sRGB - Texture
  color_timing: ACEScct
  compositing_log: ACEScct
  data: Raw
  matte_paint: sRGB - Texture
  scene_linear: ACEScg
  texture_paint: ACEScct

file_rules:
  - !<Rule> {name: Default, colorspace: ACES2065-1}

shared_views:
  - !<View> {name: ACES 1.0 - SDR Video, view_transform: ACES 1.0 - SDR Video, display_colorspace: <USE_DISPLAY_NAME>}
  - !<View> {name: ACES 1.0 - SDR Video (D60 sim on D65), view_transform: ACES 1.0 - SDR Video (D60 sim on D65), display_colorspace: <USE_DISPLAY_NAME>}
  - !<View> {name: ACES 1.1 - SDR Video (P3 lim), view_transform: ACES 1.1 - SDR Video (P3 lim), display_colorspace: <USE_DISPLAY_NAME>}
  - !<View> {name: ACES 1.1 - SDR Video (Rec.709 lim), view_transform: ACES 1.1 - SDR Video (Rec.709 lim), display_colorspace: <USE_DISPLAY_NAME>}
  - !<View> {name: ACES 1.1 - HDR Video (1000 nits & Rec.2020 lim), view_transform: ACES 1.1 - HDR Video (1000 nits & Rec.2020 lim), display_colorspace: <USE_DISPLAY_NAME>}
  - !<View> {name: ACES 1.1 - HDR Video (2000 nits & Rec.2020 lim), view_transform: ACES 1.1 - HDR Video (2000 nits & Rec.2020 lim), display_colorspace: <USE_DISPLAY_NAME>}
  - !<View> {name: ACES 1.1 - HDR Video (4000 nits & Rec.2020 lim), view_transform: ACES 1.1 - HDR Video (4000 nits & Rec.2020 lim), display_colorspace: <USE_DISPLAY_NAME>}
  - !<View> {name: ACES 1.1 - HDR Video (1000 nits & P3 lim), view_transform: ACES 1.1 - HDR Video (1000 nits & P3 lim), display_colorspace: <USE_DISPLAY_NAME>}
  - !<View> {name: ACES 1.1 - HDR Video (2000 nits & P3 lim), view_transform: ACES 1.1 - HDR Video (2000 nits & P3 lim), display_colorspace: <USE_DISPLAY_NAME>}
  - !<View> {name: ACES 1.1 - HDR Video (4000 nits & P3 lim), view_transform: ACES 1.1 - HDR Video (4000 nits & P3 lim), display_colorspace: <USE_DISPLAY_NAME>}
  - !<View> {name: ACES 1.0 - SDR Cinema, view_transform: ACES 1.0 - SDR Cinema, display_colorspace: <USE_DISPLAY_NAME>}
  - !<View> {name: ACES 1.1 - SDR Cinema (D60 sim on D65), view_transform: ACES 1.1 - SDR Cinema (D60 sim on D65), display_colorspace: <USE_DISPLAY_NAME>}
  - !<View> {name: ACES 1.1 - SDR Cinema (Rec.709 lim), view_transform: ACES 1.1 - SDR Cinema (Rec.709 lim), display_colorspace: <USE_DISPLAY_NAME>}
  - !<View> {name: ACES 1.0 - SDR Cinema (D60 sim on DCI), view_transform: ACES 1.0 - SDR Cinema (D60 sim on DCI), display_colorspace: <USE_DISPLAY_NAME>}
  - !<View> {name: ACES 1.1 - SDR Cinema (D65 sim on DCI), view_transform: ACES 1.1 - SDR Cinema (D65 sim on DCI), display_colorspace: <USE_DISPLAY_NAME>}
  - !<View> {name: ACES 1.1 - HDR Cinema (108 nits & P3 lim), view_transform: ACES 1.1 - HDR Cinema (108 nits & P3 lim), display_colorspace: <USE_DISPLAY_NAME>}
  - !<View> {name: Un-tone-mapped, view_transform: Un-tone-mapped, display_colorspace: <USE_DISPLAY_NAME>}
  - !<View> {name: Calibrated ROE_EOTF_CS - ROE - REDWideGamutRGB - EOTF_CS - Soft_Rolloff_s1155-10000_to_1650_nits, view_transform: Calibrated ROE_EOTF_CS - ROE - REDWideGamutRGB - EOTF_CS - Soft_Rolloff_s1155-10000_to_1650_nits, display_colorspace: <USE_DISPLAY_NAME>}
  - !<View> {name: Calibrated ROE_EOTF_CS - ROE - REDWideGamutRGB - EOTF_CS - Medium_Rolloff_s1320-10000_to_1650_nits, view_transform: Calibrated ROE_EOTF_CS - ROE - REDWideGamutRGB - EOTF_CS - Medium_Rolloff_s1320-10000_to_1650_nits, display_colorspace: <USE_DISPLAY_NAME>}
  - !<View> {name: Calibrated ROE_EOTF_CS - ROE - REDWideGamutRGB - EOTF_CS - Hard_Rolloff_s1485-10000_to_1650_nits, view_transform: Calibrated ROE_EOTF_CS - ROE - REDWideGamutRGB - EOTF_CS - Hard_Rolloff_s1485-10000_to_1650_nits, display_colorspace: <USE_DISPLAY_NAME>}
  - !<View> {name: Calibrated Output - ROE_EOTF_CS - ROE - REDWideGamutRGB - EOTF_CS, view_transform: Calibrated ROE_EOTF_CS - ROE - REDWideGamutRGB - EOTF_CS, display_colorspace: <USE_DISPLAY_NAME>}
  - !<View> {name: Pre-Calibration Output, view_transform: Pre-Calibration - Default Target, display_colorspace: <USE_DISPLAY_NAME>}

displays:
  sRGB - Display:
    - !<View> {name: Raw, colorspace: Raw}
    - !<Views> [ACES 1.0 - SDR Video, ACES 1.0 - SDR Video (D60 sim on D65), Un-tone-mapped]
  Rec.1886 Rec.709 - Display:
    - !<View> {name: Raw, colorspace: Raw}
    - !<Views> [ACES 1.0 - SDR Video, ACES 1.0 - SDR Video (D60 sim on D65), Un-tone-mapped]
  Rec.1886 Rec.2020 - Display:
    - !<View> {name: Raw, colorspace: Raw}
    - !<Views> [ACES 1.0 - SDR Video, ACES 1.1 - SDR Video (P3 lim), ACES 1.1 - SDR Video (Rec.709 lim), Un-tone-mapped]
  Rec.2100-HLG - Display:
    - !<View> {name: Raw, colorspace: Raw}
    - !<Views> [ACES 1.1 - HDR Video (1000 nits & Rec.2020 lim), Un-tone-mapped]
  Rec.2100-PQ - Display:
    - !<View> {name: Raw, colorspace: Raw}
    - !<Views> [ACES 1.1 - HDR Video (1000 nits & Rec.2020 lim), ACES 1.1 - HDR Video (2000 nits & Rec.2020 lim), ACES 1.1 - HDR Video (4000 nits & Rec.2020 lim), Un-tone-mapped]
  ST2084-P3-D65 - Display:
    - !<View> {name: Raw, colorspace: Raw}
    - !<Views> [ACES 1.1 - HDR Video (1000 nits & P3 lim), ACES 1.1 - HDR Video (2000 nits & P3 lim), ACES 1.1 - HDR Video (4000 nits & P3 lim), ACES 1.1 - HDR Cinema (108 nits & P3 lim), Un-tone-mapped]
  P3-D60 - Display:
    - !<View> {name: Raw, colorspace: Raw}
    - !<Views> [ACES 1.0 - SDR Cinema, Un-tone-mapped]
  P3-D65 - Display:
    - !<View> {name: Raw, colorspace: Raw}
    - !<Views> [ACES 1.0 - SDR Cinema, ACES 1.1 - SDR Cinema (D60 sim on D65), ACES 1.1 - SDR Cinema (Rec.709 lim), Un-tone-mapped]
  P3-DCI - Display:
    - !<View> {name: Raw, colorspace: Raw}
    - !<Views> [ACES 1.0 - SDR Cinema (D60 sim on DCI), ACES 1.1 - SDR Cinema (D65 sim on DCI), Un-tone-mapped]
  ROE - ST 2084 - OpenVPCal LED:
    - !<View> {name: Raw, colorspace: Raw}
    - !<Views> [Calibrated Output - ROE_EOTF_CS - ROE - REDWideGamutRGB - EOTF_CS, Calibrated ROE_EOTF_CS - ROE - REDWideGamutRGB - EOTF_CS - Soft_Rolloff_s1155-10000_to_1650_nits, Calibrated ROE_EOTF_CS - ROE - REDWideGamutRGB - EOTF_CS - Medium_Rolloff_s1320-10000_to_1650_nits, Calibrated ROE_EOTF_CS - ROE - REDWideGamutRGB - EOTF_CS - Hard_Rolloff_s1485-10000_to_1650_nits, Pre-Calibration Output]

active_displays: [ROE - ST 2084 - OpenVPCal LED, sRGB - Display, Rec.1886 Rec.709 - Display, Rec.1886 Rec.2020 - Display, Rec.2100-HLG - Display, Rec.2100-PQ - Display, ST2084-P3-D65 - Display, P3-D60 - Display, P3-D65 - Display, P3-DCI - Display]
active_views: [Calibrated Output - ROE_EOTF_CS - ROE - REDWideGamutRGB - EOTF_CS, Pre-Calibration Output, Calibrated ROE_EOTF_CS - ROE - REDWideGamutRGB - EOTF_CS - Soft_Rolloff_s1155-10000_to_1650_nits, Calibrated ROE_EOTF_CS - ROE - REDWideGamutRGB - EOTF_CS - Medium_Rolloff_s1320-10000_to_1650_nits, Calibrated ROE_EOTF_CS - ROE - REDWideGamutRGB - EOTF_CS - Hard_Rolloff_s1485-10000_to_1650_nits, ACES 1.0 - SDR Video, ACES 1.0 - SDR Video (D60 sim on D65), ACES 1.1 - SDR Video (P3 lim), ACES 1.1 - SDR Video (Rec.709 lim), ACES 1.1 - HDR Video (1000 nits & Rec.2020 lim), ACES 1.1 - HDR Video (2000 nits & Rec.2020 lim), ACES 1.1 - HDR Video (4000 nits & Rec.2020 lim), ACES 1.1 - HDR Video (1000 nits & P3 lim), ACES 1.1 - HDR Video (2000 nits & P3 lim), ACES 1.1 - HDR Video (4000 nits & P3 lim), ACES 1.0 - SDR Cinema, ACES 1.1 - SDR Cinema (D60 sim on D65), ACES 1.1 - SDR Cinema (Rec.709 lim), ACES 1.0 - SDR Cinema (D60 sim on DCI), ACES 1.1 - SDR Cinema (D65 sim on DCI), ACES 1.1 - HDR Cinema (108 nits & P3 lim), Un-tone-mapped, Raw]
inactive_colorspaces: [CIE-XYZ-D65, sRGB - Display, Rec.1886 Rec.709 - Display, Rec.1886 Rec.2020 - Display, sRGB - Display, Rec.1886 Rec.709 - Display, Rec.1886 Rec.2020 - Display, Rec.1886 Rec.2020 - Display, Rec.2100-HLG - Display, Rec.2100-PQ - Display, Rec.2100-PQ - Display, Rec.2100-PQ - Display, ST2084-P3-D65 - Display, ST2084-P3-D65 - Display, ST2084-P3-D65 - Display, P3-D60 - Display, P3-D65 - Display, P3-D65 - Display, P3-D65 - Display, P3-DCI - Display, P3-DCI - Display, ST2084-P3-D65 - Display]

looks:
  - !<Look>
    name: ACES 1.3 Reference Gamut Compression
    process_space: ACES2065-1
    description: |
      LMT (applied in ACES2065-1) to compress scene-referred values from common cameras into the AP1 gamut

      ACEStransformID: urn:ampas:aces:transformId:v1.5:LMT.Academy.GamutCompress.a1.3.0
    transform: !<BuiltinTransform> {style: ACES-LMT - ACES 1.3 Reference Gamut Compression}

  - !<Look>
    name: Soft_Rolloff_s1155-10000_to_1650_nits
    process_space: ACES2065-1
    transform: !<GroupTransform>
      children:
        - !<BuiltinTransform> {style: CURVE - ST-2084_to_LINEAR, direction: inverse}
        - !<GradingRGBCurveTransform>
          style: log
          master: {control_points: [0, 0, 0.6907876, 0.6907876, 0.7675417, 0.7675417, 0.7933704, 0.7791252, 0.8191991, 0.7881464, 0.8450278, 0.7949257, 0.8708565, 0.7997833, 0.8966852, 0.8030394, 0.9225139, 0.8050145, 0.9483426, 0.8060287, 0.9741713, 0.8064024, 1, 0.8064558]}
        - !<BuiltinTransform> {style: CURVE - ST-2084_to_LINEAR}

  - !<Look>
    name: Medium_Rolloff_s1320-10000_to_1650_nits
    process_space: ACES2065-1
    transform: !<GroupTransform>
      children:
        - !<BuiltinTransform> {style: CURVE - ST-2084_to_LINEAR, direction: inverse}
        - !<GradingRGBCurveTransform>
          style: log
          master: {control_points: [0, 0, 0.7038997, 0.7038997, 0.7821108, 0.7821108, 0.8063207, 0.7893575, 0.8305306, 0.7950013, 0.8547405, 0.7992424, 0.8789504, 0.8022814, 0.9031603, 0.8043185, 0.9273703, 0.8055541, 0.9515802, 0.8061886, 0.9757901, 0.8064224, 1, 0.8064558]}
        - !<BuiltinTransform> {style: CURVE - ST-2084_to_LINEAR}

  - !<Look>
    name: Hard_Rolloff_s1485-10000_to_1650_nits
    process_space: ACES2065-1
    transform: !<GroupTransform>
      children:
        - !<BuiltinTransform> {style: CURVE - ST-2084_to_LINEAR, direction: inverse}
        - !<GradingRGBCurveTransform>
          style: log
          master: {control_points: [0, 0, 0.7154661, 0.7154661, 0.7949624, 0.7949624, 0.8177444, 0.7983836, 0.8405263, 0.801048, 0.8633083, 0.8030503, 0.8860902, 0.804485, 0.9088722, 0.8054467, 0.9316542, 0.8060301, 0.9544361, 0.8063297, 0.977218, 0.80644, 1, 0.8064558]}
        - !<BuiltinTransform> {style: CURVE - ST-2084_to_LINEAR}


default_view_transform: Un-tone-mapped

view_transforms:
  - !<ViewTransform>
    name: ACES 1.0 - SDR Video
    description: |
      Component of ACES Output Transforms for SDR D65 video

      ACEStransformID: urn:ampas:aces:transformId:v1.5:ODT.Academy.RGBmonitor_100nits_dim.a1.0.3
      ACEStransformID: urn:ampas:aces:transformId:v1.5:ODT.Academy.Rec709_100nits_dim.a1.0.3
      ACEStransformID: urn:ampas:aces:transformId:v1.5:ODT.Academy.Rec2020_100nits_dim.a1.0.3
    from_scene_reference: !<BuiltinTransform> {style: ACES-OUTPUT - ACES2065-1_to_CIE-XYZ-D65 - SDR-VIDEO_1.0}

  - !<ViewTransform>
    name: ACES 1.0 - SDR Video (D60 sim on D65)
    description: |
      Component of ACES Output Transforms for SDR D65 video simulating D60 white

      ACEStransformID: urn:ampas:aces:transformId:v1.5:ODT.Academy.RGBmonitor_D60sim_100nits_dim.a1.0.3
      ACEStransformID: urn:ampas:aces:transformId:v1.5:ODT.Academy.Rec709_D60sim_100nits_dim.a1.0.3
    from_scene_reference: !<BuiltinTransform> {style: ACES-OUTPUT - ACES2065-1_to_CIE-XYZ-D65 - SDR-VIDEO-D60sim-D65_1.0}

  - !<ViewTransform>
    name: ACES 1.1 - SDR Video (P3 lim)
    description: |
      Component of ACES Output Transforms for SDR D65 video

      ACEStransformID: urn:ampas:aces:transformId:v1.5:ODT.Academy.Rec2020_P3D65limited_100nits_dim.a1.1.0
    from_scene_reference: !<BuiltinTransform> {style: ACES-OUTPUT - ACES2065-1_to_CIE-XYZ-D65 - SDR-VIDEO-P3lim_1.1}

  - !<ViewTransform>
    name: ACES 1.1 - SDR Video (Rec.709 lim)
    description: |
      Component of ACES Output Transforms for SDR D65 video

      ACEStransformID: urn:ampas:aces:transformId:v1.5:ODT.Academy.Rec2020_Rec709limited_100nits_dim.a1.1.0
    from_scene_reference: !<BuiltinTransform> {style: ACES-OUTPUT - ACES2065-1_to_CIE-XYZ-D65 - SDR-VIDEO-REC709lim_1.1}

  - !<ViewTransform>
    name: ACES 1.1 - HDR Video (1000 nits & Rec.2020 lim)
    description: |
      Component of ACES Output Transforms for 1000 nit HDR D65 video

      ACEStransformID: urn:ampas:aces:transformId:v1.5:RRTODT.Academy.Rec2020_1000nits_15nits_HLG.a1.1.0
      ACEStransformID: urn:ampas:aces:transformId:v1.5:RRTODT.Academy.Rec2020_1000nits_15nits_ST2084.a1.1.0
    from_scene_reference: !<BuiltinTransform> {style: ACES-OUTPUT - ACES2065-1_to_CIE-XYZ-D65 - HDR-VIDEO-1000nit-15nit-REC2020lim_1.1}

  - !<ViewTransform>
    name: ACES 1.1 - HDR Video (2000 nits & Rec.2020 lim)
    description: |
      Component of ACES Output Transforms for 2000 nit HDR D65 video

      ACEStransformID: urn:ampas:aces:transformId:v1.5:RRTODT.Academy.Rec2020_2000nits_15nits_ST2084.a1.1.0
    from_scene_reference: !<BuiltinTransform> {style: ACES-OUTPUT - ACES2065-1_to_CIE-XYZ-D65 - HDR-VIDEO-2000nit-15nit-REC2020lim_1.1}

  - !<ViewTransform>
    name: ACES 1.1 - HDR Video (4000 nits & Rec.2020 lim)
    description: |
      Component of ACES Output Transforms for 4000 nit HDR D65 video

      ACEStransformID: urn:ampas:aces:transformId:v1.5:RRTODT.Academy.Rec2020_4000nits_15nits_ST2084.a1.1.0
    from_scene_reference: !<BuiltinTransform> {style: ACES-OUTPUT - ACES2065-1_to_CIE-XYZ-D65 - HDR-VIDEO-4000nit-15nit-REC2020lim_1.1}

  - !<ViewTransform>
    name: ACES 1.1 - HDR Video (1000 nits & P3 lim)
    description: |
      Component of ACES Output Transforms for 1000 nit HDR D65 video

      ACEStransformID: urn:ampas:aces:transformId:v1.5:RRTODT.Academy.P3D65_1000nits_15nits_ST2084.a1.1.0
    from_scene_reference: !<BuiltinTransform> {style: ACES-OUTPUT - ACES2065-1_to_CIE-XYZ-D65 - HDR-VIDEO-1000nit-15nit-P3lim_1.1}

  - !<ViewTransform>
    name: ACES 1.1 - HDR Video (2000 nits & P3 lim)
    description: |
      Component of ACES Output Transforms for 2000 nit HDR D65 video

      ACEStransformID: urn:ampas:aces:transformId:v1.5:RRTODT.Academy.P3D65_2000nits_15nits_ST2084.a1.1.0
    from_scene_reference: !<BuiltinTransform> {style: ACES-OUTPUT - ACES2065-1_to_CIE-XYZ-D65 - HDR-VIDEO-2000nit-15nit-P3lim_1.1}

  - !<ViewTransform>
    name: ACES 1.1 - HDR Video (4000 nits & P3 lim)
    description: |
      Component of ACES Output Transforms for 4000 nit HDR D65 video

      ACEStransformID: urn:ampas:aces:transformId:v1.5:RRTODT.Academy.P3D65_4000nits_15nits_ST2084.a1.1.0
    from_scene_reference: !<BuiltinTransform> {style: ACES-OUTPUT - ACES2065-1_to_CIE-XYZ-D65 - HDR-VIDEO-4000nit-15nit-P3lim_1.1}

  - !<ViewTransform>
    name: ACES 1.0 - SDR Cinema
    description: |
      Component of ACES Output Transforms for SDR cinema

      ACEStransformID: urn:ampas:aces:transformId:v1.5:ODT.Academy.P3D60_48nits.a1.0.3
      ACEStransformID: urn:ampas:aces:transformId:v1.5:ODT.Academy.P3D65_48nits.a1.1.0
    from_scene_reference: !<BuiltinTransform> {style: ACES-OUTPUT - ACES2065-1_to_CIE-XYZ-D65 - SDR-CINEMA_1.0}

  - !<ViewTransform>
    name: ACES 1.1 - SDR Cinema (D60 sim on D65)
    description: |
      Component of ACES Output Transforms for SDR D65 cinema simulating D60 white

      ACEStransformID: urn:ampas:aces:transformId:v1.5:ODT.Academy.P3D65_D60sim_48nits.a1.1.0
    from_scene_reference: !<BuiltinTransform> {style: ACES-OUTPUT - ACES2065-1_to_CIE-XYZ-D65 - SDR-CINEMA-D60sim-D65_1.1}

  - !<ViewTransform>
    name: ACES 1.1 - SDR Cinema (Rec.709 lim)
    description: |
      Component of ACES Output Transforms for SDR cinema

      ACEStransformID: urn:ampas:aces:transformId:v1.5:ODT.Academy.P3D65_Rec709limited_48nits.a1.1.0
    from_scene_reference: !<BuiltinTransform> {style: ACES-OUTPUT - ACES2065-1_to_CIE-XYZ-D65 - SDR-CINEMA-REC709lim_1.1}

  - !<ViewTransform>
    name: ACES 1.0 - SDR Cinema (D60 sim on DCI)
    description: |
      Component of ACES Output Transforms for SDR DCI cinema simulating D60 white

      ACEStransformID: urn:ampas:aces:transformId:v1.5:ODT.Academy.P3DCI_48nits.a1.0.3
    from_scene_reference: !<BuiltinTransform> {style: ACES-OUTPUT - ACES2065-1_to_CIE-XYZ-D65 - SDR-CINEMA-D60sim-DCI_1.0}

  - !<ViewTransform>
    name: ACES 1.1 - SDR Cinema (D65 sim on DCI)
    description: |
      Component of ACES Output Transforms for SDR DCI cinema simulating D65 white

      ACEStransformID: urn:ampas:aces:transformId:v1.5:ODT.Academy.P3DCI_D65sim_48nits.a1.1.0
    from_scene_reference: !<BuiltinTransform> {style: ACES-OUTPUT - ACES2065-1_to_CIE-XYZ-D65 - SDR-CINEMA-D65sim-DCI_1.1}

  - !<ViewTransform>
    name: ACES 1.1 - HDR Cinema (108 nits & P3 lim)
    description: |
      Component of ACES Output Transforms for 108 nit HDR D65 cinema

      ACEStransformID: urn:ampas:aces:transformId:v1.5:RRTODT.Academy.P3D65_108nits_7point2nits_ST2084.a1.1.0
    from_scene_reference: !<BuiltinTransform> {style: ACES-OUTPUT - ACES2065-1_to_CIE-XYZ-D65 - HDR-CINEMA-108nit-7.2nit-P3lim_1.1}

  - !<ViewTransform>
    name: Un-tone-mapped
    from_scene_reference: !<BuiltinTransform> {style: UTILITY - ACES-AP0_to_CIE-XYZ-D65_BFD}

  - !<ViewTransform>
    name: Calibrated ROE_EOTF_CS - ROE - REDWideGamutRGB - EOTF_CS - Soft_Rolloff_s1155-10000_to_1650_nits
    description: Calibrated Output - OpenVPCal ROE REDWideGamutRGB - EOTF_CS With Rolloff Soft_Rolloff_s1155-10000_to_1650_nits
    from_scene_reference: !<GroupTransform>
      children:
        - !<LookTransform> {src: ACES2065-1, dst: ACES2065-1, looks: Soft_Rolloff_s1155-10000_to_1650_nits}
        - !<ColorSpaceTransform> {src: ACES2065-1, dst: Calibration CSC - ROE_EOTF_CS - REDWideGamutRGB - EOTF_CS}
        - !<BuiltinTransform> {style: UTILITY - ACES-AP0_to_CIE-XYZ-D65_BFD}

  - !<ViewTransform>
    name: Calibrated ROE_EOTF_CS - ROE - REDWideGamutRGB - EOTF_CS - Medium_Rolloff_s1320-10000_to_1650_nits
    description: Calibrated Output - OpenVPCal ROE REDWideGamutRGB - EOTF_CS With Rolloff Medium_Rolloff_s1320-10000_to_1650_nits
    from_scene_reference: !<GroupTransform>
      children:
        - !<LookTransform> {src: ACES2065-1, dst: ACES2065-1, looks: Medium_Rolloff_s1320-10000_to_1650_nits}
        - !<ColorSpaceTransform> {src: ACES2065-1, dst: Calibration CSC - ROE_EOTF_CS - REDWideGamutRGB - EOTF_CS}
        - !<BuiltinTransform> {style: UTILITY - ACES-AP0_to_CIE-XYZ-D65_BFD}

  - !<ViewTransform>
    name: Calibrated ROE_EOTF_CS - ROE - REDWideGamutRGB - EOTF_CS - Hard_Rolloff_s1485-10000_to_1650_nits
    description: Calibrated Output - OpenVPCal ROE REDWideGamutRGB - EOTF_CS With Rolloff Hard_Rolloff_s1485-10000_to_1650_nits
    from_scene_reference: !<GroupTransform>
      children:
        - !<LookTransform> {src: ACES2065-1, dst: ACES2065-1, looks: Hard_Rolloff_s1485-10000_to_1650_nits}
        - !<ColorSpaceTransform> {src: ACES2065-1, dst: Calibration CSC - ROE_EOTF_CS - REDWideGamutRGB - EOTF_CS}
        - !<BuiltinTransform> {style: UTILITY - ACES-AP0_to_CIE-XYZ-D65_BFD}

  - !<ViewTransform>
    name: Pre-Calibration - Default Target
    description: The OpenVPCal Pre Calibrated native Output
    from_scene_reference: !<BuiltinTransform> {style: UTILITY - ACES-AP0_to_CIE-XYZ-D65_BFD}

  - !<ViewTransform>
    name: Calibrated ROE_EOTF_CS - ROE - REDWideGamutRGB - EOTF_CS
    description: Calibrated Output - OpenVPCal ROE REDWideGamutRGB - EOTF_CS
    from_scene_reference: !<GroupTransform>
      children:
        - !<ColorSpaceTransform> {src: ACES2065-1, dst: Calibration CSC - ROE_EOTF_CS - REDWideGamutRGB - EOTF_CS}
        - !<BuiltinTransform> {style: UTILITY - ACES-AP0_to_CIE-XYZ-D65_BFD}

display_colorspaces:
  - !<ColorSpace>
    name: CIE-XYZ-D65
    aliases: [cie_xyz_d65]
    family: ""
    equalitygroup: ""
    bitdepth: 32f
    description: The "CIE XYZ (D65)" display connection colorspace.
    isdata: false
    allocation: uniform

  - !<ColorSpace>
    name: sRGB - Display
    aliases: [srgb_display]
    family: Display
    equalitygroup: ""
    bitdepth: 32f
    description: Convert CIE XYZ (D65 white) to sRGB (piecewise EOTF)
    isdata: false
    categories: [file-io]
    encoding: sdr-video
    allocation: uniform
    from_display_reference: !<BuiltinTransform> {style: DISPLAY - CIE-XYZ-D65_to_sRGB}

  - !<ColorSpace>
    name: Rec.1886 Rec.709 - Display
    aliases: [rec1886_rec709_display]
    family: Display
    equalitygroup: ""
    bitdepth: 32f
    description: Convert CIE XYZ (D65 white) to Rec.1886/Rec.709 (HD video)
    isdata: false
    categories: [file-io]
    encoding: sdr-video
    allocation: uniform
    from_display_reference: !<BuiltinTransform> {style: DISPLAY - CIE-XYZ-D65_to_REC.1886-REC.709}

  - !<ColorSpace>
    name: Rec.1886 Rec.2020 - Display
    aliases: [rec1886_rec2020_display]
    family: Display
    equalitygroup: ""
    bitdepth: 32f
    description: Convert CIE XYZ (D65 white) to Rec.1886/Rec.2020 (UHD video)
    isdata: false
    categories: [file-io]
    encoding: sdr-video
    allocation: uniform
    from_display_reference: !<BuiltinTransform> {style: DISPLAY - CIE-XYZ-D65_to_REC.1886-REC.2020}

  - !<ColorSpace>
    name: Rec.2100-HLG - Display
    aliases: [rec2100_hlg_display]
    family: Display
    equalitygroup: ""
    bitdepth: 32f
    description: Convert CIE XYZ (D65 white) to Rec.2100-HLG, 1000 nit
    isdata: false
    categories: [file-io]
    encoding: hdr-video
    allocation: uniform
    from_display_reference: !<BuiltinTransform> {style: DISPLAY - CIE-XYZ-D65_to_REC.2100-HLG-1000nit}

  - !<ColorSpace>
    name: Rec.2100-PQ - Display
    aliases: [rec2100_pq_display]
    family: Display
    equalitygroup: ""
    bitdepth: 32f
    description: Convert CIE XYZ (D65 white) to Rec.2100-PQ
    isdata: false
    categories: [file-io]
    encoding: hdr-video
    allocation: uniform
    from_display_reference: !<BuiltinTransform> {style: DISPLAY - CIE-XYZ-D65_to_REC.2100-PQ}

  - !<ColorSpace>
    name: ST2084-P3-D65 - Display
    aliases: [st2084_p3d65_display]
    family: Display
    equalitygroup: ""
    bitdepth: 32f
    description: Convert CIE XYZ (D65 white) to ST-2084 (PQ), P3-D65 primaries
    isdata: false
    categories: [file-io]
    encoding: hdr-video
    allocation: uniform
    from_display_reference: !<BuiltinTransform> {style: DISPLAY - CIE-XYZ-D65_to_ST2084-P3-D65}

  - !<ColorSpace>
    name: P3-D60 - Display
    aliases: [p3d60_display]
    family: Display
    equalitygroup: ""
    bitdepth: 32f
    description: Convert CIE XYZ (D65 white) to Gamma 2.6, P3-D60 (Bradford adaptation)
    isdata: false
    categories: [file-io]
    encoding: sdr-video
    allocation: uniform
    from_display_reference: !<BuiltinTransform> {style: DISPLAY - CIE-XYZ-D65_to_G2.6-P3-D60-BFD}

  - !<ColorSpace>
    name: P3-D65 - Display
    aliases: [p3d65_display]
    family: Display
    equalitygroup: ""
    bitdepth: 32f
    description: Convert CIE XYZ (D65 white) to Gamma 2.6, P3-D65
    isdata: false
    categories: [file-io]
    encoding: sdr-video
    allocation: uniform
    from_display_reference: !<BuiltinTransform> {style: DISPLAY - CIE-XYZ-D65_to_G2.6-P3-D65}

  - !<ColorSpace>
    name: P3-DCI - Display
    aliases: [p3_dci_display]
    family: Display
    equalitygroup: ""
    bitdepth: 32f
    description: Convert CIE XYZ (D65 white) to Gamma 2.6, P3-DCI (DCI white with Bradford adaptation)
    isdata: false
