tests/test_open_vp_cal/resources/Sample_Project11_SRGB_EOTF_Verify/export/calibration/Wall1_REDWideGamutRGB_sRGB_sRGB_EOTF_CS.cube
LUT_3D_SIZE 64
0.000000 0.000000 0.000000
0.018377 0.000411 0.000779
0.035173 0.000822 0.001553
0.050335 0.001246 0.002351
0.067764 0.001760 0.003324
0.087631 0.002377 0.004510
0.102390 0.003108 0.005886
0.119948 0.003954 0.007497
0.135359 0.004921 0.009325
0.150374 0.006014 0.011389
0.167467 0.007234 0.013714
0.182986 0.008588 0.016283
0.198579 0.010078 0.019119
0.214709 0.011707 0.022237
0.231796 0.013478 0.025743
0.249066 0.015393 0.029669
0.265934 0.017448 0.033524
0.282555 0.019640 0.037151
0.299002 0.021970 0.040612
0.315615 0.024433 0.043806
0.332320 0.027033 0.047502
0.349508 0.029770 0.051952
0.366622 0.032606 0.057224
0.382923 0.035356 0.063038
0.398970 0.038083 0.068037
0.415241 0.040772 0.072377
0.431573 0.043354 0.076336
0.448003 0.046081 0.080097
0.464649 0.049036 0.084267
0.481590 0.052193 0.088870
0.498082 0.055466 0.093778
0.514577 0.058843 0.098913
0.531259 0.062292 0.103899
0.548061 0.065803 0.108724
0.564636 0.069391 0.113504
0.580973 0.073126 0.118252
0.597231 0.077014 0.122970
0.613684 0.080830 0.127372
0.630338 0.084333 0.131471
0.646918 0.087553 0.135371
0.663128 0.090594 0.139126
0.678923 0.093467 0.143043
0.694842 0.096177 0.147177
0.711484 0.098991 0.151513
0.728844 0.102031 0.156016
0.746343 0.105323 0.160662
0.763070 0.108972 0.165209
0.779290 0.112611 0.169585
0.795189 0.116242 0.173794
0.811237 0.119864 0.177845
0.827420 0.123476 0.181738
0.843627 0.127091 0.185644
0.859864 0.130757 0.189881
0.876177 0.134479 0.194457
0.892535 0.138230 0.199384
0.908921 0.141821 0.204672
0.925333 0.145215 0.210212
0.942573 0.148411 0.215504
0.961083 0.151423 0.220497
0.979972 0.154256 0.225330
0.999045 0.156907 0.230067
1.018190 0.159473 0.234718
1.037274 0.162323 0.239313
1.056299 0.165495 0.243853
-0.001230 0.016053 -0.000078
0.017314 0.016520 0.000068
0.034291 0.016961 0.000478
0.049565 0.017396 0.001105
0.067046 0.017907 0.002008
0.087111 0.018514 0.003180
0.101971 0.019234 0.004513
0.119541 0.020061 0.006112
0.135077 0.021007 0.007922
0.150078 0.022073 0.009969
0.167204 0.023257 0.012291
0.182767 0.024567 0.014850
0.198368 0.026003 0.017677
0.214510 0.027566 0.020786
0.231600 0.029256 0.024228
0.248891 0.031076 0.028124
0.265774 0.032968 0.032181
0.282409 0.034864 0.035978
0.298864 0.036808 0.039599
0.315485 0.038799 0.042919
0.332195 0.040810 0.046463
0.349386 0.042795 0.050768
0.366511 0.044890 0.055878
0.382823 0.047173 0.061742
0.398874 0.049636 0.067029
0.415149 0.052255 0.071515
0.431486 0.054981 0.075598
0.447919 0.057812 0.079378
0.464566 0.060739 0.083495
0.481512 0.063744 0.088062
0.498008 0.066830 0.092950
0.514505 0.070017 0.098103
0.531189 0.073348 0.103153
0.547995 0.076823 0.108021
0.564573 0.080285 0.112832
0.580913 0.083516 0.117607
0.597173 0.086516 0.122350
0.613627 0.089361 0.126841
0.630282 0.092073 0.130984
0.646865 0.094651 0.134927
0.663078 0.097153 0.138697
0.678876 0.099836 0.142603
0.694794 0.102728 0.146727
0.711436 0.105891 0.151059
0.728796 0.109317 0.155559
0.746297 0.112746 0.160211
0.763027 0.116179 0.164787
0.779250 0.119613 0.169190
0.795150 0.123049 0.173425
0.811199 0.126489 0.177502
0.827382 0.129974 0.181419
0.843591 0.133514 0.185313
0.859828 0.137110 0.189529
0.876141 0.140610 0.194085
0.892501 0.143937 0.198991
0.908887 0.147088 0.204259
0.925300 0.150077 0.209808
0.942537 0.152901 0.215133
0.961047 0.155556 0.220155
0.979937 0.158044 0.225003
0.999010 0.160629 0.229755
1.018156 0.163519 0.234418
1.037240 0.166715 0.239023
1.056267 0.170224 0.243574
-0.002459 0.031552 -0.000156
0.016115 0.031989 -0.000025
0.033248 0.032420 0.000127
0.048685 0.032844 0.000445
0.066267 0.033323 0.001095
0.086551 0.033866 0.002121
0.101535 0.034496 0.003329
0.119117 0.035204 0.004863
0.134785 0.036002 0.006620
0.149776 0.036887 0.008624
0.166935 0.037854 0.010926
0.182545 0.038907 0.013465
0.198155 0.040035 0.016273
0.214308 0.041217 0.019368
0.231402 0.042443 0.022771
0.248715 0.043748 0.026589
0.265613 0.045184 0.030776
0.282262 0.046753 0.034769
0.298726 0.048461 0.038535
0.315355 0.050313 0.042051
0.332070 0.052290 0.045478
0.349263 0.054379 0.049638
0.366401 0.056582 0.054586
0.382722 0.058902 0.060383
0.398777 0.061312 0.065964
0.415057 0.063801 0.070630
0.431398 0.066374 0.074838
0.447834 0.069039 0.078675
0.464482 0.071836 0.082738
0.481434 0.074773 0.087262
0.497934 0.077845 0.092129
0.514433 0.080852 0.097286
0.531120 0.083697 0.102400
0.547928 0.086376 0.107315
0.564510 0.088949 0.112156
0.580853 0.091433 0.116959
0.597115 0.093820 0.121729
0.613570 0.096110 0.126306
0.630227 0.098490 0.130493
0.646813 0.101053 0.134478
0.663028 0.103805 0.138271
0.678829 0.106866 0.142166
0.694746 0.110067 0.146279
0.711388 0.113280 0.150606
0.728747 0.116504 0.155103
0.746252 0.119740 0.159757
0.762985 0.122988 0.164362
0.779209 0.126250 0.168793
0.795111 0.129558 0.173054
0.811160 0.132923 0.177156
0.827344 0.136344 0.181098
0.843554 0.139725 0.184984
0.859791 0.142953 0.189180
0.876106 0.146027 0.193716
0.892466 0.148950 0.198600
0.908853 0.151732 0.203848
0.925267 0.154371 0.209401
0.942502 0.156856 0.214760
0.961011 0.159252 0.219812
0.979902 0.161891 0.224676
0.998975 0.164819 0.229442
1.018122 0.168040 0.234118
1.037207 0.171571 0.238734
1.056234 0.175466 0.243295
-0.003731 0.044293 -0.000229
0.014868 0.044638 -0.000106
0.032111 0.044983 0.000023
0.047698 0.045339 0.000171
0.065400 0.045751 0.000567
0.085924 0.046220 0.001357
0.101058 0.046770 0.002365
0.118659 0.047390 0.003761
0.134470 0.048099 0.005414
0.149456 0.048900 0.007338
0.166652 0.049794 0.009596
0.182312 0.050793 0.012096
0.197932 0.051889 0.014873
0.214099 0.053082 0.017945
0.231197 0.054373 0.021327
0.248531 0.055765 0.025065
0.265446 0.057261 0.029269
0.282109 0.058858 0.033477
0.298583 0.060548 0.037399
0.315220 0.062328 0.041105
0.331941 0.064199 0.044520
0.349136 0.066166 0.048524
0.366286 0.068233 0.053308
0.382617 0.070428 0.058943
0.398678 0.072749 0.064804
0.414962 0.075190 0.069691
0.431307 0.077750 0.074032
0.447747 0.080292 0.077964
0.464396 0.082748 0.081971
0.481353 0.085110 0.086443
0.497858 0.087390 0.091288
0.514359 0.089624 0.096434
0.531048 0.091805 0.101614
0.547859 0.093924 0.106584
0.564445 0.095977 0.111456
0.580791 0.098110 0.116288
0.597055 0.100408 0.121085
0.613512 0.102872 0.125747
0.630170 0.105541 0.129981
0.646758 0.108481 0.134010
0.662977 0.111444 0.137834
0.678780 0.114430 0.141717
0.694697 0.117439 0.145819
0.711338 0.120467 0.150140
0.728696 0.123514 0.154634
0.746204 0.126584 0.159285
0.762940 0.129710 0.163921
0.779168 0.132897 0.168381
0.795070 0.136142 0.172670
0.811120 0.139371 0.176798
0.827306 0.142465 0.180764
0.843516 0.145421 0.184647
0.859754 0.148243 0.188821
0.876069 0.150941 0.193336
0.892430 0.153512 0.198199
0.908818 0.155954 0.203425
0.925232 0.158266 0.208978
0.942465 0.160701 0.214372
0.960974 0.163403 0.219458
0.979865 0.166379 0.224337
0.998939 0.169634 0.229118
1.018087 0.173211 0.233807
1.037173 0.177137 0.238434
1.056200 0.181409 0.243005
-0.005269 0.058806 -0.000321
0.013353 0.059147 -0.000200
0.030725 0.059488 -0.000078
0.046457 0.059839 0.000050
0.064300 0.060259 0.000244
0.085107 0.060742 0.000785
0.100447 0.061300 0.001541
0.118071 0.061923 0.002709
0.134067 0.062622 0.004181
0.149058 0.063400 0.005956
0.166298 0.064253 0.008121
0.182024 0.065193 0.010543
0.197657 0.066220 0.013262
0.213842 0.067333 0.016291
0.230946 0.068538 0.019643
0.248307 0.069844 0.023311
0.265241 0.071257 0.027411
0.281922 0.072777 0.031833
0.298409 0.074404 0.035976
0.315056 0.076141 0.039891
0.331784 0.077978 0.043442
0.348982 0.079839 0.047252
0.366146 0.081703 0.051843
0.382489 0.083561 0.057266
0.398556 0.085399 0.063316
0.414847 0.087210 0.068522
0.431197 0.089016 0.073025
0.447641 0.090810 0.077108
0.464292 0.092587 0.081061
0.481255 0.094344 0.085468
0.497765 0.096080 0.090281
0.514269 0.097905 0.095399
0.530960 0.099869 0.100651
0.547776 0.101975 0.105694
0.564366 0.104229 0.110605
0.580716 0.106742 0.115473
0.596982 0.109374 0.120303
0.613440 0.112040 0.125053
0.630100 0.114736 0.129355
0.646693 0.117463 0.133438
0.662915 0.120218 0.137307
0.678722 0.123003 0.141176
0.694638 0.125818 0.145264
0.711278 0.128685 0.149577
0.728635 0.131614 0.154067
0.746147 0.134605 0.158715
0.762887 0.137650 0.163385
0.779117 0.140621 0.167880
0.795021 0.143481 0.172201
0.811072 0.146226 0.176361
0.827258 0.148857 0.180358
0.843470 0.151381 0.184242
0.859709 0.153796 0.188390
0.876025 0.156099 0.192879
0.892387 0.158291 0.197716
0.908776 0.160612 0.202916
0.925191 0.163188 0.208463
0.942421 0.166019 0.213899
0.960929 0.169105 0.219026
0.979820 0.172481 0.223925
0.998895 0.176184 0.228726
1.018044 0.180212 0.233430
1.037131 0.184403 0.238071
1.056160 0.188321 0.242655
-0.007124 0.075508 -0.000440
0.011521 0.075830 -0.000319
0.029046 0.076152 -0.000198
0.044947 0.076484 -0.000076
0.062931 0.076884 0.000100
0.084055 0.077360 0.000381
0.099672 0.077902 0.000909
0.117319 0.078503 0.001804
0.133550 0.079167 0.003023
0.148556 0.079892 0.004569
0.165854 0.080669 0.006565
0.181666 0.081505 0.008850
0.197318 0.082396 0.011461
0.213526 0.083336 0.014411
0.230638 0.084320 0.017705
0.248034 0.085346 0.021323
0.264991 0.086411 0.025286
0.281694 0.087524 0.029745
0.298197 0.088676 0.034193
0.314856 0.089860 0.038330
0.331595 0.091072 0.042178
0.348797 0.092309 0.045828
0.365978 0.093571 0.050190
0.382335 0.094858 0.055350
0.398408 0.096168 0.061396
0.414707 0.097559 0.067039
0.431064 0.099050 0.071766
0.447513 0.100650 0.076036
0.464166 0.102365 0.079994
0.481137 0.104203 0.084319
0.497653 0.106250 0.089081
0.514160 0.108436 0.094167
0.530855 0.110672 0.099476
0.547675 0.112953 0.104612
0.564270 0.115278 0.109574
0.580625 0.117646 0.114486
0.596893 0.120055 0.119356
0.613354 0.122503 0.124184
0.630016 0.124986 0.128591
0.646613 0.127516 0.132740
0.662840 0.130110 0.136671
0.678651 0.132769 0.140529
0.694566 0.135494 0.144600
0.711205 0.138256 0.148900
0.728562 0.140950 0.153386
0.746078 0.143564 0.158029
0.762822 0.146095 0.162732
0.779056 0.148538 0.167270
0.794962 0.150899 0.171632
0.811014 0.153171 0.175830
0.827201 0.155349 0.179864
0.843414 0.157429 0.183757
0.859655 0.159504 0.187874
0.875972 0.161801 0.192333
0.892335 0.164332 0.197138
0.908725 0.167103 0.202307
0.925141 0.170119 0.207837
0.942367 0.173419 0.213325
0.960875 0.177016 0.218502
0.979767 0.180914 0.223428
0.998842 0.184893 0.228250
1.017992 0.188613 0.232975
1.037081 0.192071 0.237631
1.056111 0.195307 0.242231
-0.009313 0.091184 -0.000576
0.009355 0.091397 -0.000455
0.027054 0.091608 -0.000335
0.043152 0.091826 -0.000217
0.061304 0.092087 -0.000054
0.082726 0.092396 0.000193
0.098729 0.092759 0.000466
0.116383 0.093159 0.001108
0.132901 0.093599 0.002051
0.147937 0.094080 0.003309
0.165306 0.094593 0.005052
0.181226 0.095144 0.007123
0.196904 0.095733 0.009558
0.213144 0.096370 0.012374
0.230269 0.097065 0.015569
0.247705 0.097825 0.019109
0.264692 0.098654 0.022965
0.281421 0.099557 0.027243
0.297944 0.100538 0.031945
0.314619 0.101595 0.036393
0.331370 0.102732 0.040557
0.348577 0.103954 0.044307
0.365778 0.105285 0.048388
0.382151 0.106802 0.053250
0.398232 0.108388 0.059017
0.414540 0.110036 0.065132
0.430905 0.111734 0.070218
0.447362 0.113486 0.074714
0.464017 0.115290 0.078779
0.480997 0.117149 0.083006
0.497520 0.119064 0.087689
0.514031 0.121034 0.092734
0.530730 0.123055 0.098069
0.547555 0.125123 0.103316
0.564157 0.127247 0.108352
0.580517 0.129437 0.113315
0.596789 0.131693 0.118234
0.613252 0.134015 0.123116
0.629917 0.136400 0.127676
0.646519 0.138804 0.131903
0.662751 0.141164 0.135908
0.678567 0.143474 0.139772
0.694481 0.145731 0.143822
0.711119 0.147930 0.148106
0.728475 0.150074 0.152585
0.745996 0.152160 0.157223
0.762746 0.154183 0.161956
0.778984 0.156137 0.166544
0.794892 0.158016 0.170954
0.810945 0.159966 0.175197
0.827134 0.162114 0.179276
0.843349 0.164466 0.183193
0.859591 0.167031 0.187272
0.875909 0.169816 0.191694
0.892273 0.172857 0.196462
0.908664 0.176173 0.201594
0.925082 0.179767 0.207093
0.942304 0.183554 0.212641
0.960811 0.187159 0.217877
0.979704 0.190536 0.222839
0.998780 0.193686 0.227687
1.017931 0.196707 0.232436
1.037021 0.199646 0.237111
1.056052 0.202508 0.241729
-0.011854 0.104763 -0.000723
0.006839 0.104989 -0.000604
0.024731 0.105214 -0.000486
0.041049 0.105446 -0.000373
0.059406 0.105726 -0.000220
0.081110 0.106061 0.000010
0.097605 0.106456 0.000255
0.115249 0.106910 0.000604
0.132109 0.107412 0.001303
0.147188 0.107969 0.002267
0.164638 0.108572 0.003705
0.180690 0.109229 0.005494
0.196406 0.109939 0.007676
0.212687 0.110701 0.010285
0.229830 0.111517 0.013320
0.247316 0.112390 0.016736
0.264339 0.113321 0.020486
0.281099 0.114312 0.024582
0.297646 0.115364 0.029178
0.314341 0.116475 0.034024
0.331108 0.117638 0.038508
0.348323 0.118857 0.042656
0.365546 0.120132 0.046510
0.381938 0.121473 0.051040
0.398026 0.122880 0.056429
0.414345 0.124349 0.062705
0.430721 0.125870 0.068336
0.447185 0.127449 0.073104
0.463845 0.129091 0.077407
0.480835 0.130797 0.081539
0.497366 0.132574 0.086111
0.513882 0.134420 0.091103
0.530584 0.136335 0.096411
0.547416 0.138289 0.101788
0.564026 0.140238 0.106926
0.580392 0.142174 0.111949
0.596668 0.144095 0.116925
0.613134 0.145992 0.121860
0.629801 0.147863 0.126597
0.646410 0.149707 0.130916
0.662648 0.151520 0.135008
0.678469 0.153299 0.138902
0.694383 0.155038 0.142929
0.711020 0.156733 0.147190
0.728374 0.158385 0.151661
0.745901 0.160143 0.156293
0.762657 0.162073 0.161047
0.778900 0.164180 0.165694
0.794811 0.166467 0.170160
0.810865 0.168939 0.174457
0.827056 0.171617 0.178587
0.843273 0.174529 0.182548
0.859516 0.177683 0.186583
0.875835 0.181083 0.190963
0.892201 0.184556 0.195689
0.908594 0.187851 0.200777
0.925013 0.190964 0.206233
0.942231 0.193891 0.211840
0.960736 0.196717 0.217145
0.979630 0.199476 0.222152
0.998708 0.202169 0.227032
1.017861 0.204847 0.231809
1.036952 0.207527 0.236507
1.055985 0.210208 0.241146
-0.014755 0.121543 -0.000909
0.003959 0.121739 -0.000789
0.022057 0.121935 -0.000670
0.038617 0.122138 -0.000556
0.057209 0.122382 -0.000407
0.079162 0.122675 -0.000185
0.096320 0.123020 0.000052
0.113900 0.123418 0.000355
0.131167 0.123870 0.000736
0.146303 0.124368 0.001452
0.163840 0.124908 0.002587
0.180049 0.125498 0.004063
0.195813 0.126135 0.005935
0.212147 0.126821 0.008266
0.229313 0.127555 0.011067
0.246859 0.128340 0.014296
0.263926 0.129182 0.017886
0.280725 0.130080 0.021841
0.297297 0.131037 0.026178
0.314017 0.132054 0.031089
0.330804 0.133128 0.036009
0.348029 0.134257 0.040572
0.365280 0.135443 0.044643
0.381693 0.136695 0.048781
0.397790 0.138001 0.053755
0.414119 0.139345 0.059697
0.430508 0.140716 0.065968
0.446982 0.142102 0.071159
0.463647 0.143503 0.075758
0.480648 0.144914 0.079939
0.497189 0.146339 0.084375
0.513710 0.147774 0.089280
0.530418 0.149218 0.094530
0.547256 0.150665 0.100006
0.563875 0.152109 0.105283
0.580249 0.153546 0.110378
0.596529 0.154971 0.115418
0.612999 0.156380 0.120415
0.629669 0.157768 0.125326
0.646285 0.159183 0.129764
0.662530 0.160726 0.133957
0.678358 0.162405 0.137919
0.694270 0.164227 0.141918
0.710905 0.166196 0.146153
0.728259 0.168319 0.150612
0.745793 0.170607 0.155236
0.762556 0.173091 0.159996
0.778804 0.175776 0.164712
0.794718 0.178666 0.169244
0.810774 0.181763 0.173603
0.826967 0.184865 0.177792
0.843186 0.187831 0.181810
0.859431 0.190655 0.185808
0.875752 0.193337 0.190139
0.892119 0.195935 0.194816
0.908514 0.198490 0.199853
0.924935 0.201001 0.205260
0.942146 0.203483 0.210912
0.960651 0.205969 0.216296
0.979546 0.208460 0.221363
0.998625 0.210958 0.226278
1.017780 0.213462 0.231090
1.036873 0.215970 0.235813
1.055908 0.218482 0.240477
-0.018032 0.138541 -0.001121
0.000700 0.138716 -0.001000
0.018982 0.138891 -0.000880
0.035825 0.139071 -0.000764
0.054672 0.139288 -0.000619
0.076825 0.139547 -0.000403
0.094872 0.139851 -0.000168
0.112367 0.140202 0.000118
0.130053 0.140600 0.000474
0.145276 0.141045 0.000880
0.162904 0.141526 0.001697
0.179293 0.142044 0.002874
0.195115 0.142600 0.004418
0.211514 0.143191 0.006422
0.228711 0.143814 0.008921
0.246326 0.144471 0.011893
0.263446 0.145162 0.015263
0.280291 0.145887 0.019026
0.296897 0.146645 0.023175
0.313642 0.147437 0.027768
0.330453 0.148261 0.032939
0.347692 0.149109 0.037958
0.364978 0.149981 0.042550
0.381416 0.150876 0.046572
0.397523 0.151803 0.051095
0.413861 0.152759 0.056534
0.430263 0.153742 0.062948
0.446751 0.154737 0.068825
0.463421 0.155737 0.073769
0.480438 0.156744 0.078218
0.496988 0.157757 0.082507
0.513515 0.158803 0.087274
0.530228 0.159940 0.092455
0.547075 0.161175 0.097949
0.563704 0.162510 0.103389
0.580087 0.163949 0.108590
0.596372 0.165499 0.113705
0.612845 0.167163 0.118772
0.629520 0.168948 0.123794
0.646143 0.170864 0.128435
0.662396 0.172930 0.132744
0.678232 0.175155 0.136814
0.694143 0.177542 0.140793
0.710776 0.180098 0.144998
0.728128 0.182797 0.149437
0.745669 0.185449 0.154052
0.762441 0.188017 0.158803
0.778695 0.190495 0.163590
0.794613 0.192874 0.168196
0.810670 0.195180 0.172625
0.826866 0.197461 0.176882
0.843087 0.199715 0.180964
0.859334 0.201941 0.184946
0.875657 0.204172 0.189221
0.892027 0.206422 0.193844
0.908423 0.208690 0.198823
0.924846 0.210975 0.204175
0.942051 0.213274 0.209849
0.960555 0.215580 0.215323
0.979451 0.217894 0.220467
0.998531 0.220213 0.225422
1.017688 0.222528 0.230272
1.036784 0.224839 0.235026
1.055821 0.227145 0.239718
-0.021702 0.153268 -0.001344
-0.002958 0.153393 -0.001223
0.015467 0.153517 -0.001103
0.032647 0.153646 -0.000987
0.051757 0.153801 -0.000846
0.074029 0.153986 -0.000640
0.093254 0.154204 -0.000405
0.110646 0.154455 -0.000137
0.128783 0.154740 0.000199
0.144104 0.155059 0.000565
0.161820 0.155411 0.001055
0.178417 0.155786 0.001936
0.194308 0.156187 0.003169
0.210780 0.156611 0.004830
0.228014 0.157056 0.006983
0.245710 0.157520 0.009635
0.262892 0.158007 0.012716
0.279792 0.158528 0.016226
0.296438 0.159092 0.020151
0.313214 0.159702 0.024510
0.330051 0.160362 0.029347
0.347309 0.161075 0.034764
0.364634 0.161837 0.039888
0.381106 0.162657 0.044406
0.397223 0.163539 0.048535
0.413571 0.164498 0.053446
0.429985 0.165538 0.059335
0.446489 0.166659 0.065883
0.463168 0.167851 0.071388
0.480200 0.169120 0.076209
0.496763 0.170481 0.080539
0.513296 0.171947 0.085129
0.530016 0.173526 0.090203
0.546871 0.175221 0.095625
0.563511 0.177038 0.101222
0.579904 0.178977 0.106578
0.596195 0.181045 0.111776
0.612673 0.183196 0.116923
0.629351 0.185321 0.122020
0.645984 0.187412 0.126915
0.662246 0.189462 0.131356
0.678091 0.191464 0.135550
0.694000 0.193414 0.139554
0.710632 0.195342 0.143724
0.727982 0.197270 0.148134
0.745531 0.199193 0.152738
0.762312 0.201111 0.157477
0.778573 0.203033 0.162316
0.794495 0.204980 0.167005
0.810554 0.206948 0.171515
0.826753 0.208937 0.175848
0.842977 0.210947 0.180004
0.859226 0.212975 0.184002
0.875551 0.215024 0.188213
0.891923 0.217093 0.192775
0.908322 0.219181 0.197690
0.924746 0.221279 0.202977
0.941945 0.223384 0.208641
0.960447 0.225489 0.214217
0.979345 0.227594 0.219456
0.998426 0.229697 0.224457
1.017586 0.231799 0.229351
1.036684 0.233920 0.234142
1.055724 0.236091 0.238865
-0.025777 0.166535 -0.001579
-0.007029 0.166673 -0.001460
0.011513 0.166812 -0.001340
0.029055 0.166955 -0.001225
0.048418 0.167129 -0.001089
0.070834 0.167339 -0.000893
0.091398 0.167587 -0.000658
0.108731 0.167877 -0.000405
0.127344 0.168208 -0.000083
0.142800 0.168584 0.000256
0.160576 0.169006 0.000703
0.177416 0.169476 0.001228
0.193386 0.169987 0.002170
0.209943 0.170543 0.003513
0.227218 0.171144 0.005312
0.245004 0.171792 0.007609
0.262258 0.172492 0.010350
0.279221 0.173246 0.013548
0.295915 0.174058 0.017192
0.312728 0.174932 0.021300
0.329596 0.175870 0.025858
0.346870 0.176877 0.030955
0.364244 0.177957 0.036583
0.380756 0.179109 0.041726
0.396892 0.180336 0.046194
0.413249 0.181648 0.050551
0.429673 0.183017 0.055814
0.446190 0.184418 0.062136
0.462883 0.185838 0.068527
0.479934 0.187263 0.073806
0.496513 0.188694 0.078481
0.513052 0.190129 0.082901
0.529778 0.191568 0.087798
0.546643 0.193006 0.093127
0.563296 0.194452 0.098760
0.579700 0.195918 0.104311
0.595998 0.197400 0.109623
0.612481 0.198898 0.114857
0.629164 0.200409 0.120038
0.645807 0.201931 0.125146
0.662079 0.203478 0.129772
0.677933 0.205056 0.134107
0.693842 0.206662 0.138203
0.710471 0.208297 0.142333
0.727819 0.209960 0.146706
0.745378 0.211652 0.151293
0.762169 0.213373 0.156018
0.778437 0.215122 0.160880
0.794364 0.216896 0.165664
0.810425 0.218691 0.170263
0.826627 0.220504 0.174682
0.842854 0.222330 0.178920
0.859107 0.224167 0.182978
0.875433 0.226017 0.187118
0.891808 0.227880 0.191610
0.908209 0.229754 0.196454
0.924636 0.231639 0.201670
0.941827 0.233544 0.207279
0.960327 0.235495 0.212969
0.979227 0.237491 0.218317
0.998310 0.239535 0.223380
1.017472 0.241628 0.228322
1.036573 0.243770 0.233157
1.055615 0.245961 0.237915
-0.030255 0.186221 -0.001890
-0.011508 0.186372 -0.001769
0.007116 0.186523 -0.001648
0.025037 0.186678 -0.001528
0.044607 0.186866 -0.001392
0.067310 0.187090 -0.001198
0.089257 0.187353 -0.000955
0.106616 0.187657 -0.000705
0.125721 0.188001 -0.000381
0.141361 0.188388 -0.000047
0.159181 0.188815 0.000387
0.176275 0.189283 0.000890
0.192344 0.189793 0.001472
0.208999 0.190337 0.002402
0.226319 0.190909 0.003885
0.244203 0.191511 0.005836
0.261539 0.192142 0.008222
0.278573 0.192801 0.011070
0.295323 0.193488 0.014384
0.312179 0.194207 0.018190
0.329083 0.194958 0.022473
0.346378 0.195741 0.027255
0.363798 0.196555 0.032581
0.380361 0.197404 0.038334
0.396522 0.198276 0.043495
0.412896 0.199171 0.047966
0.429331 0.200098 0.052581
0.445857 0.201064 0.058178
0.462562 0.202069 0.064846
0.479638 0.203103 0.070941
0.496235 0.204166 0.076062
0.512784 0.205260 0.080626
0.529516 0.206391 0.085297
0.546390 0.207560 0.090477
0.563057 0.208767 0.096013
0.579474 0.210010 0.101743
0.595779 0.211284 0.107232
0.612268 0.212590 0.112564
0.628956 0.213927 0.117838
0.645610 0.215294 0.123048
0.661894 0.216692 0.127975
0.677759 0.218117 0.132468
0.693667 0.219568 0.136714
0.710294 0.221041 0.140830
0.727640 0.222536 0.145160
0.745209 0.224054 0.149718
0.762010 0.225595 0.154428
0.778287 0.227157 0.159278
0.794219 0.228738 0.164161
0.810283 0.230335 0.168861
0.826488 0.231945 0.173376
0.842719 0.233582 0.177706
0.858975 0.235263 0.181852
0.875304 0.236990 0.185939
0.891681 0.238766 0.190354
0.908084 0.240592 0.195122
0.924514 0.242468 0.200258
0.941696 0.244393 0.205790
0.960195 0.246361 0.211566
0.979096 0.248362 0.217038
0.998181 0.250395 0.222184
1.017347 0.252461 0.227181
1.036451 0.254560 0.232066
1.055496 0.256693 0.236863
-0.035161 0.203398 -0.002211
-0.016414 0.203510 -0.002089
0.002263 0.203622 -0.001966
0.020584 0.203737 -0.001844
0.040273 0.203878 -0.001707
0.063441 0.204046 -0.001519
0.086786 0.204244 -0.001271
0.104292 0.204474 -0.001026
0.123899 0.204735 -0.000705
0.139785 0.205031 -0.000379
0.157627 0.205360 0.000037
0.175013 0.205724 0.000517
0.191177 0.206123 0.001059
0.207935 0.206558 0.001714
0.225315 0.207022 0.002714
0.243303 0.207511 0.004340
0.260730 0.208029 0.006372
0.277844 0.208577 0.008854
0.294657 0.209155 0.011802
0.311561 0.209761 0.015257
0.328509 0.210397 0.019214
0.345828 0.211062 0.023698
0.363300 0.211758 0.028680
0.379912 0.212488 0.034130
0.396108 0.213251 0.040037
0.412507 0.214036 0.045243
0.428957 0.214847 0.049738
0.445493 0.215696 0.054606
0.462204 0.216588 0.060519
0.479306 0.217522 0.067354
0.495926 0.218479 0.073167
0.512488 0.219461 0.078197
0.529229 0.220469 0.082772
0.546112 0.221510 0.087714
0.562793 0.222585 0.093119
0.579224 0.223691 0.098852
0.595539 0.224825 0.104569
0.612034 0.225984 0.110036
0.628728 0.227168 0.115412
0.645394 0.228376 0.120719
0.661691 0.229610 0.125924
0.677568 0.230864 0.130617
0.693475 0.232140 0.135030
0.710100 0.233445 0.139220
0.727443 0.234791 0.143503
0.745023 0.236181 0.148017
0.761837 0.237616 0.152708
0.778122 0.239098 0.157539
0.794060 0.240625 0.162485
0.810126 0.242195 0.167297
0.826336 0.243808 0.171919
0.842570 0.245465 0.176350
0.858830 0.247159 0.180594
