tests/test_open_vp_cal/resources/Sample_Project11_SRGB_EOTF_Verify/export/calibration/Wall1_REDWideGamutRGB_sRGB_sRGB_EOTF_CS.cube
LUT_3D_SIZE 4
0.000000 0.000000 0.000000
0.349508 0.029770 0.051952
0.694842 0.096177 0.147177
1.056299 0.165495 0.243853
-0.090957 0.328094 -0.005706
0.338932 0.332699 0.004539
0.691224 0.346741 0.111908
1.053864 0.371044 0.221985
-0.402513 0.653779 -0.025137
0.295001 0.655781 -0.016339
0.676506 0.662581 0.019876
1.044948 0.674612 0.150009
-1.001306 0.983125 -0.062654
0.176583 0.984297 -0.053870
0.644053 0.988293 -0.022646
1.025235 0.995861 0.050418
-0.017567 0.039849 0.343876
0.347247 0.061429 0.351022
0.693977 0.114526 0.373969
1.055727 0.179037 0.414328
-0.085653 0.335069 0.329597
0.338348 0.339004 0.336918
0.690536 0.352384 0.361157
1.053357 0.375957 0.402020
-0.318849 0.658937 0.273382
0.306573 0.660643 0.282881
0.678830 0.666483 0.312501
1.045185 0.677684 0.360243
-0.789496 0.988208 0.116996
0.227080 0.989270 0.132015
0.654914 0.992834 0.178328
1.029203 0.999451 0.255736
-0.077732 0.119041 0.678065
0.339388 0.131311 0.681100
0.690935 0.162308 0.691385
1.053633 0.217007 0.710698
-0.145818 0.353716 0.672066
0.330389 0.357497 0.675132
0.687503 0.369792 0.685516
1.051257 0.391378 0.704999
-0.379014 0.667074 0.651214
0.297803 0.668777 0.654340
0.675802 0.674606 0.664991
1.043063 0.685727 0.685110
-0.827231 0.993313 0.609962
0.218315 0.994303 0.613347
0.652114 0.997685 0.624594
1.027068 1.004138 0.645258
-0.193371 0.204637 1.011660
0.324027 0.211524 1.013250
0.685112 0.232435 1.018669
1.049593 0.268481 1.028980
-0.261457 0.385553 1.008532
0.314690 0.388735 1.010128
0.681698 0.399493 1.015570
1.047205 0.419478 1.025922
-0.494653 0.682655 0.997719
0.280184 0.684332 0.999339
0.669884 0.690007 1.004859
1.038968 0.700632 1.015356
-0.942872 1.002344 0.976341
0.193022 1.003322 0.978028
0.645663 1.006661 0.983764
1.022888 1.013038 0.994618
