tests/test_open_vp_cal/resources/Sample_Project11_SRGB_EOTF_Verify/export/calibration/Wall1_REDWideGamutRGB_sRGB_sRGB_EOTF_CS.cube
LUT_3D_SIZE 8
0.000000 0.000000 0.000000
0.150374 0.006014 0.011389
0.299002 0.021970 0.040612
0.448003 0.046081 0.080097
0.597231 0.077014 0.122970
0.746343 0.105323 0.160662
0.892535 0.138230 0.199384
1.056299 0.165495 0.243853
-0.018032 0.138541 -0.001121
0.145276 0.141045 0.000880
0.296897 0.146645 0.023175
0.446751 0.154737 0.068825
0.596372 0.165499 0.113705
0.745669 0.185449 0.154052
0.892027 0.206422 0.193844
1.055821 0.227145 0.239718
-0.066449 0.280783 -0.004164
0.129728 0.281999 -0.002388
0.290096 0.285245 0.003301
0.443092 0.290705 0.035587
0.593965 0.298087 0.088027
0.743828 0.307274 0.137968
0.890651 0.318051 0.181151
1.054526 0.330754 0.228156
-0.153981 0.420804 -0.009634
0.091804 0.421486 -0.007877
0.276236 0.423309 -0.003021
0.435390 0.426563 0.007638
0.589191 0.431172 0.049345
0.740264 0.437074 0.104572
0.888081 0.444449 0.156389
1.052124 0.453343 0.204423
-0.286582 0.561670 -0.017940
-0.017063 0.562155 -0.016184
0.253274 0.563452 -0.011497
0.422696 0.565780 -0.002301
0.581041 0.569259 0.014295
0.734305 0.573781 0.062984
0.883919 0.579287 0.119699
1.048377 0.585794 0.174929
-0.469214 0.701913 -0.029357
-0.194376 0.702277 -0.027578
0.216550 0.703252 -0.022969
0.404403 0.705009 -0.014222
0.569019 0.707652 0.000187
0.725212 0.711252 0.023293
0.877641 0.715706 0.076297
1.042891 0.720930 0.135724
-0.706207 0.839487 -0.044032
-0.431366 0.839776 -0.042262
0.155254 0.840551 -0.037659
0.379075 0.841950 -0.029129
0.552774 0.844062 -0.015612
0.712871 0.846954 0.004467
0.868856 0.850672 0.034680
1.035273 0.855096 0.092734
-1.001306 0.983125 -0.062654
-0.726466 0.983357 -0.060879
-0.005167 0.983981 -0.056166
0.344570 0.985107 -0.047723
0.531440 0.986810 -0.034583
0.697362 0.989144 -0.015674
0.857387 0.992154 0.011206
1.025235 0.995861 0.050418
-0.003482 0.008382 0.147935
0.149284 0.014368 0.151544
0.298500 0.030027 0.161275
0.447708 0.052215 0.176406
0.597033 0.082371 0.196731
0.746201 0.109329 0.226736
0.892441 0.141410 0.256111
1.056215 0.168042 0.287229
-0.016978 0.142286 0.140990
0.145078 0.144304 0.144496
0.296505 0.149269 0.154171
0.446492 0.156815 0.170727
0.596195 0.167956 0.190868
0.745543 0.188289 0.221661
0.891946 0.208463 0.252153
1.055745 0.228880 0.283592
-0.053222 0.283552 0.120557
0.134280 0.284603 0.125275
0.291086 0.287428 0.135598
0.443210 0.292460 0.152672
0.593940 0.299607 0.176751
0.743765 0.308623 0.206086
0.890613 0.319284 0.240820
1.054481 0.331997 0.273767
-0.119159 0.423449 0.062946
0.108217 0.424036 0.070838
0.280983 0.425594 0.086679
0.437214 0.428382 0.115586
0.589845 0.432559 0.144903
0.740510 0.438231 0.178559
0.888189 0.445480 0.217467
1.052182 0.454337 0.255902
-0.239604 0.563932 0.004866
0.029739 0.564397 0.008857
0.261709 0.565637 0.020605
0.426951 0.567830 0.046612
0.583331 0.571019 0.084236
0.735372 0.575132 0.134391
0.884419 0.580340 0.178390
1.048636 0.586711 0.225427
-0.420134 0.703665 -0.016307
-0.145459 0.704023 -0.013775
0.227285 0.704983 -0.006909
0.409547 0.706707 0.006891
0.572220 0.709285 0.032016
0.727288 0.712752 0.070521
0.878826 0.716924 0.126215
1.043519 0.721912 0.180964
-0.656455 0.840889 -0.034097
-0.381695 0.841175 -0.031955
0.170655 0.841945 -0.026278
0.384828 0.843331 -0.015509
0.556312 0.845420 0.002286
0.715324 0.848272 0.030542
0.870618 0.851915 0.069667
1.036378 0.856168 0.129505
-0.951317 0.984264 -0.053820
-0.676527 0.984495 -0.051818
0.044830 0.985116 -0.046462
0.351086 0.986236 -0.036739
0.535231 0.987928 -0.021318
0.699995 0.990245 0.001553
0.859341 0.993227 0.035398
1.026671 0.996886 0.076942
-0.012834 0.030346 0.297132
0.146360 0.035632 0.298850
0.297119 0.047359 0.303344
0.446865 0.068029 0.311105
0.596452 0.093245 0.322125
0.745745 0.119184 0.336873
0.892098 0.148624 0.355498
1.055892 0.175092 0.376825
-0.026330 0.149367 0.293691
0.142222 0.151061 0.295457
0.295115 0.155237 0.300078
0.445647 0.162058 0.308021
0.595614 0.174974 0.319248
0.745085 0.194777 0.334034
0.891602 0.213458 0.352780
1.055422 0.233037 0.374397
-0.062573 0.287487 0.284016
0.131342 0.288540 0.285880
0.289673 0.291328 0.290844
0.442360 0.296167 0.299379
0.593358 0.303032 0.311300
0.743305 0.311770 0.326366
0.890269 0.322183 0.345344
1.054161 0.334932 0.367705
-0.128092 0.425630 0.266017
0.104084 0.426205 0.267925
0.279511 0.427746 0.273032
0.436351 0.430514 0.282181
0.589260 0.434668 0.295641
0.740050 0.440313 0.312240
0.887854 0.447538 0.331640
1.051876 0.456355 0.354971
-0.227348 0.566191 0.236079
0.041887 0.566602 0.238395
0.263012 0.567702 0.244423
0.427073 0.569681 0.254618
0.583004 0.572656 0.268818
0.735029 0.576709 0.287880
0.884179 0.581894 0.310245
1.048401 0.588246 0.334462
-0.364078 0.706458 0.180353
-0.091286 0.706767 0.182888
0.237640 0.707597 0.190196
0.413912 0.709093 0.205273
0.574220 0.711351 0.226436
0.727959 0.714442 0.249723
0.879086 0.718422 0.275281
1.043591 0.723333 0.304663
-0.554139 0.844021 0.103305
-0.280725 0.844280 0.106609
0.197391 0.844975 0.115894
0.395281 0.846230 0.133868
0.562136 0.848089 0.155260
0.718683 0.850615 0.183439
0.872406 0.853848 0.220300
1.037284 0.857813 0.257859
-0.829742 0.987112 0.028699
-0.555436 0.987334 0.032947
0.116947 0.987931 0.044429
0.365936 0.989004 0.062686
0.543793 0.990614 0.086532
0.705668 0.992799 0.115636
0.863185 0.995572 0.150011
1.029044 0.998923 0.188042
-0.029738 0.060692 0.442332
0.141194 0.064861 0.443298
0.294607 0.075813 0.445822
0.445339 0.091754 0.450306
0.595402 0.110357 0.456927
0.744919 0.135497 0.465576
0.891477 0.158882 0.476053
1.055304 0.189102 0.491392
-0.043235 0.159479 0.440371
0.137213 0.160905 0.441382
0.292588 0.165072 0.443983
0.444117 0.173796 0.448505
0.594562 0.188993 0.455180
0.744256 0.204824 0.463992
0.890981 0.222009 0.474317
1.054834 0.240476 0.489529
-0.079478 0.294425 0.434711
0.125504 0.295409 0.435818
0.287100 0.298001 0.438723
0.440817 0.302500 0.443594
0.592302 0.308944 0.450420
0.742469 0.317232 0.459482
0.889647 0.327438 0.470046
1.053572 0.340207 0.484558
-0.144996 0.429504 0.423465
0.096838 0.430073 0.424708
0.276799 0.431597 0.427973
0.434786 0.434336 0.433611
0.588198 0.438447 0.441487
0.739202 0.444045 0.450974
0.887229 0.451215 0.462618
1.051285 0.459916 0.475708
-0.244252 0.568958 0.405274
0.027597 0.569365 0.406510
0.260056 0.570456 0.409851
0.425471 0.572418 0.415969
0.581930 0.575368 0.425286
0.734163 0.579388 0.436994
0.883551 0.584532 0.449801
1.047808 0.590840 0.464233
-0.380955 0.708547 0.381422
-0.108169 0.708855 0.382614
0.234199 0.709681 0.385779
0.412251 0.711170 0.391535
0.573117 0.713417 0.400405
0.727082 0.716495 0.412952
0.878453 0.720458 0.429383
1.042994 0.725347 0.446570
-0.558324 0.845936 0.347630
-0.285538 0.846181 0.349044
0.196169 0.846841 0.352820
0.394349 0.848031 0.359482
0.561313 0.849831 0.369171
0.717915 0.852303 0.381715
0.871784 0.855499 0.397362
1.036703 0.859460 0.417686
-0.779237 0.989530 0.299600
-0.506451 0.989727 0.301283
0.136219 0.990258 0.305693
0.370701 0.991215 0.313328
0.545956 0.992663 0.324233
0.706575 0.994651 0.338949
0.863397 0.997223 0.357473
1.028796 1.000413 0.378586
-0.055346 0.095897 0.583289
0.133624 0.098221 0.584048
0.290764 0.104920 0.586075
0.443017 0.117980 0.589694
0.593808 0.135770 0.595068
0.743661 0.154882 0.602262
0.890535 0.176397 0.611263
1.054413 0.205061 0.622021
-0.068842 0.177253 0.581800
0.129256 0.179372 0.582560
0.288721 0.185152 0.584596
0.441788 0.194009 0.588239
0.592966 0.204989 0.593647
0.742995 0.218426 0.600887
0.890038 0.233745 0.609941
1.053943 0.251766 0.620757
-0.105086 0.304029 0.577792
0.114698 0.304915 0.578554
0.283139 0.307261 0.580598
0.438470 0.311378 0.584284
0.590701 0.317326 0.589787
0.741198 0.325186 0.597152
0.888703 0.335436 0.606355
1.052679 0.348155 0.617329
-0.170604 0.435294 0.570512
0.084490 0.435855 0.571278
0.272615 0.437355 0.573335
0.432403 0.440052 0.577043
0.586587 0.444110 0.582639
0.737912 0.449645 0.590235
0.886282 0.456696 0.599726
1.050390 0.465209 0.611005
-0.269860 0.573105 0.559395
0.002920 0.573507 0.560169
0.255491 0.574584 0.562246
0.423030 0.576521 0.565989
0.580297 0.579434 0.571638
0.732845 0.583405 0.579373
0.882598 0.588494 0.589286
1.046909 0.594736 0.601095
-0.406563 0.711692 0.543911
-0.133777 0.711998 0.544695
0.228849 0.712819 0.546799
0.409718 0.714298 0.550592
0.571438 0.716530 0.556315
0.725755 0.719588 0.564152
0.877494 0.723525 0.574242
1.042089 0.728383 0.586679
-0.583933 0.848449 0.523057
-0.311146 0.848694 0.523899
0.190291 0.849351 0.526145
0.391705 0.850538 0.530155
0.559572 0.852332 0.536107
0.716595 0.854796 0.544103
0.870816 0.857981 0.554367
1.035791 0.861930 0.567027
-0.804845 0.991551 0.494007
-0.532059 0.991748 0.494963
0.128072 0.992277 0.497539
0.367766 0.993231 0.502154
0.544124 0.994675 0.508935
0.705266 0.996657 0.517875
0.862419 0.999222 0.528938
1.027875 1.002403 0.542065
-0.090616 0.131572 0.726952
0.121167 0.133932 0.727515
0.285387 0.140090 0.729025
0.439797 0.149501 0.731749
0.591606 0.160420 0.735845
0.741917 0.178420 0.741414
0.889236 0.201872 0.748522
1.053184 0.223384 0.757194
-0.104112 0.202473 0.725846
0.115160 0.203890 0.726410
0.283291 0.207623 0.727922
0.438559 0.214109 0.730650
0.590762 0.223325 0.734756
0.741246 0.234811 0.740342
0.888738 0.249303 0.747470
1.052713 0.266868 0.756165
-0.140355 0.315917 0.722870
0.098752 0.316710 0.723436
0.277546 0.318812 0.724953
0.435215 0.322571 0.727690
0.588489 0.328286 0.731820
0.739435 0.336193 0.737447
0.887400 0.346410 0.744629
1.051448 0.358846 0.753388
-0.205873 0.443130 0.717464
0.058318 0.443680 0.718034
0.266702 0.445155 0.719561
0.429098 0.447810 0.722314
0.584362 0.451803 0.726469
0.736124 0.457210 0.732159
0.884975 0.464057 0.739439
1.049155 0.472297 0.748317
-0.305130 0.578731 0.709210
-0.032344 0.579126 0.709784
0.249021 0.580184 0.711326
0.419643 0.582089 0.714106
0.578034 0.584955 0.718300
0.731018 0.588867 0.724044
0.881285 0.593882 0.731441
1.045668 0.600036 0.740504
-0.441833 0.715991 0.697699
-0.169047 0.716294 0.698283
0.221409 0.717107 0.699849
0.406200 0.718572 0.702670
0.569113 0.720785 0.706922
0.723930 0.723814 0.712742
0.876171 0.727717 0.720235
1.040841 0.732532 0.729477
-0.619202 0.851897 0.682450
-0.346416 0.852141 0.683049
0.182119 0.852795 0.684653
0.388040 0.853977 0.687544
0.557158 0.855763 0.691897
0.714781 0.858216 0.697842
0.869481 0.861387 0.705475
1.034532 0.865319 0.714877
-0.840114 0.994325 0.662936
-0.567328 0.994521 0.663550
0.113534 0.995048 0.665199
0.363635 0.995998 0.668173
0.541582 0.997436 0.672663
0.703466 0.999411 0.678796
0.861071 1.001965 0.686663
1.026603 1.005135 0.696324
-0.136380 0.164100 0.875667
0.100437 0.165732 0.876108
0.278184 0.170423 0.877289
0.435583 0.180189 0.879415
0.588738 0.194320 0.882616
0.739634 0.209071 0.886986
0.887547 0.225690 0.892589
1.051587 0.243887 0.899466
-0.149876 0.226184 0.874802
0.094827 0.227343 0.875243
0.276007 0.230387 0.876427
0.434332 0.235721 0.878557
0.587891 0.243830 0.881765
0.738957 0.254928 0.886143
0.887048 0.268916 0.891758
1.051115 0.286080 0.898648
-0.186119 0.330170 0.872469
0.073150 0.330950 0.872913
0.270035 0.333047 0.874103
0.430952 0.336839 0.876245
0.585609 0.342564 0.879470
0.737127 0.350405 0.883872
0.885707 0.360267 0.889516
1.049847 0.371745 0.896443
-0.251638 0.453103 0.868205
0.020804 0.453639 0.868656
0.258749 0.455074 0.869864
0.424767 0.457647 0.872033
0.581459 0.461497 0.875290
0.733784 0.466690 0.879735
0.883276 0.473267 0.885434
1.047549 0.481397 0.892427
-0.350894 0.585892 0.861596
-0.078108 0.586279 0.862060
0.240262 0.587317 0.863301
0.415198 0.589185 0.865530
0.575074 0.591998 0.868868
0.728641 0.595837 0.873390
0.879577 0.600760 0.879174
1.044056 0.606802 0.886270
-0.487596 0.721509 0.852189
-0.214810 0.721809 0.852671
0.211678 0.722612 0.853961
0.401581 0.724061 0.856276
0.566070 0.726248 0.859743
0.721564 0.729243 0.864438
0.874450 0.733101 0.870396
1.039218 0.737863 0.877642
-0.664965 0.856349 0.839470
-0.392179 0.856591 0.839968
0.170754 0.857241 0.841308
0.383240 0.858416 0.843732
0.553997 0.860192 0.847375
0.712429 0.862631 0.852308
0.867745 0.865785 0.858567
1.032897 0.869695 0.866146
-0.885877 0.997908 0.823539
-0.613091 0.998103 0.824033
0.093345 0.998626 0.825360
0.358095 0.999572 0.827762
0.538253 1.001002 0.831407
0.701133 1.002968 0.836440
0.859318 1.005510 0.842993
1.024951 1.008664 0.851053
-0.193371 0.204637 1.011660
0.067575 0.206031 1.011975
0.268817 0.209704 1.012822
0.430272 0.216088 1.014349
0.585151 0.225145 1.016657
0.736760 0.236493 1.019825
0.885438 0.250977 1.023915
1.049593 0.268481 1.028980
-0.206867 0.251436 1.011041
0.057573 0.252525 1.011356
0.266531 0.255433 1.012203
0.429004 0.260638 1.013732
0.584299 0.268425 1.016042
0.736074 0.279036 1.019212
0.884938 0.292763 1.023306
1.049121 0.307923 1.028375
-0.243110 0.347919 1.009376
0.028580 0.348692 1.009692
0.260255 0.350766 1.010541
0.425577 0.354473 1.012073
0.582002 0.359928 1.014388
0.734222 0.367139 1.017565
0.883592 0.376069 1.021668
1.047849 0.386638 1.026747
-0.308629 0.465056 1.006357
-0.035843 0.465565 1.006675
0.248366 0.466927 1.007527
0.419304 0.469365 1.009065
0.577808 0.473035 1.011389
0.730836 0.478082 1.014579
0.881154 0.484557 1.018698
1.045546 0.492477 1.023796
-0.407886 0.594622 1.001761
-0.135100 0.595000 1.002081
0.228570 0.596013 1.002938
0.409585 0.597839 1.004485
0.571351 0.600587 1.006824
0.725687 0.604339 1.010032
0.877444 0.609149 1.014175
1.042043 0.615034 1.019305
-0.544589 0.728294 0.995379
-0.271803 0.728589 0.995702
0.199258 0.729381 0.996568
0.395760 0.730809 0.998131
0.562241 0.732965 1.000490
0.718622 0.735918 1.003726
0.872302 0.739723 1.007903
1.037193 0.744415 1.013074
-0.721959 0.861857 0.986984
-0.449173 0.862098 0.987312
0.153728 0.862744 0.988192
0.377095 0.863910 0.989780
0.550013 0.865673 0.992176
0.709506 0.868096 0.995458
0.865579 0.871228 0.999687
1.030855 0.875113 1.004914
-0.942872 1.002344 0.976341
-0.670087 1.002538 0.976676
0.054977 1.003058 0.977574
0.350894 1.003998 0.979193
0.534077 1.005420 0.981637
0.698234 1.007374 0.984984
0.857130 1.009902 0.989296
1.022888 1.013038 0.994618
